; GCode generated by CraftWare

G28 X Y ; home horizontally
G28 Z ; home vertically


M104 S215 ;set head temp (no wait)
M190 S60 ;set bed temp (wait)
M109 S215 ;set head temp (wait)

; ------------------------------------
; Raft Layer #0
; ------------------------------------
M106 S0 ;turn off fan
G21 ; mm
G90 ; abs
G92 E0 ;reset extr
G0 F600 Z0.300
;segType:Raft
G0 F3000 E-1.00000
G0 F600 Z2.300
G0 X33.423 Y118.701 F5400
G0 F600 Z0.300
G0 F3000 E0.00000
G1 X30.284 Y115.562 E0.22144 F600
G1 X29.892 Y114.908 E0.25949
G1 X29.761 Y112.947 E0.35757
G1 X29.761 Y96.208 E1.19269
G1 X29.892 Y95.292 E1.23882
G1 X30.742 Y94.050 E1.31394
G1 X32.835 Y91.957 E1.46157
G1 X34.142 Y91.172 E1.53766
G1 X37.673 Y90.519 E1.71681
G1 X55.982 Y87.903 E2.63950
G1 X63.174 Y86.726 E3.00311
G1 X77.821 Y84.634 E3.74126
G1 X85.014 Y83.457 E4.10487
G1 X101.491 Y81.103 E4.93528
G1 X103.453 Y80.972 E5.03337
G1 X157.855 Y80.972 E7.74750
G1 X168.840 Y82.541 E8.30111
G1 X172.371 Y83.195 E8.48027
G1 X190.679 Y85.811 E9.40295
G1 X197.872 Y86.988 E9.76656
G1 X212.519 Y89.080 E10.50471
G1 X219.711 Y90.257 E10.86832
G1 X223.373 Y90.780 E11.05286
G1 X226.054 Y91.238 E11.18856
G1 X227.231 Y92.154 E11.26295
G1 X229.323 Y94.246 E11.41058
G1 X230.108 Y95.554 E11.48667
G1 X230.108 Y114.385 E12.42617
G1 X229.847 Y115.170 E12.46744
G1 X226.773 Y118.374 E12.68895
G1 X225.465 Y119.159 E12.76503
G1 X155.370 Y119.159 E16.26209
G1 X153.866 Y118.570 E16.34268
G1 X151.774 Y116.478 E16.49031
G1 X150.793 Y115.366 E16.56425
G1 X150.466 Y114.647 E16.60368
G1 X150.335 Y112.685 E16.70177
G1 X150.335 Y104.316 E17.11933
G1 X150.270 Y103.858 E17.14238
G1 X112.607 Y103.858 E19.02140
G1 X109.534 Y103.923 E19.17474
G1 X109.534 Y112.293 E19.59230
G1 X109.468 Y114.320 E19.69349
G1 X109.273 Y115.170 E19.73700
G1 X107.245 Y117.328 E19.88472
G1 X105.611 Y118.832 E19.99552
G1 X104.826 Y119.093 E20.03679
G1 X100.707 Y119.159 E20.24234
G1 X35.842 Y119.159 E23.47843
G1 X34.142 Y119.028 E23.56349
G1 X33.423 Y118.701 E23.60293
G0 X33.804 Y117.916 F5400
G1 X33.804 Y92.415 E24.87518 F600
G0 X37.804 Y91.500 F5400
G1 X37.804 Y118.439 E26.21920 F600
G0 X41.804 Y118.439 F5400
G1 X41.804 Y90.846 E27.59584 F600
G0 X45.804 Y90.323 F5400
G1 X45.804 Y118.439 E28.99858 F600
G0 X49.804 Y118.439 F5400
G1 X49.804 Y89.669 E30.43394 F600
G0 X53.804 Y89.146 F5400
G1 X53.804 Y118.439 E31.89539 F600
G0 X57.804 Y118.439 F5400
G1 X57.804 Y88.492 E33.38947 F600
G0 X61.804 Y87.838 F5400
G1 X61.804 Y118.439 E34.91618 F600
G0 X65.804 Y118.439 F5400
G1 X65.804 Y87.315 E36.46898 F600
G0 X69.804 Y86.661 F5400
G1 X69.804 Y118.439 E38.05440 F600
G0 X73.804 Y118.439 F5400
G1 X73.804 Y86.138 E39.66591 F600
G0 X77.804 Y85.484 F5400
G1 X77.804 Y118.439 E41.31005 F600
G0 X81.804 Y118.439 F5400
G1 X81.804 Y84.961 E42.98029 F600
G0 X85.804 Y84.307 F5400
G1 X85.804 Y118.439 E44.68315 F600
G0 X89.804 Y118.439 F5400
G1 X89.804 Y83.653 E46.41863 F600
G0 X93.804 Y83.130 F5400
G1 X93.804 Y118.439 E48.18021 F600
G0 X97.804 Y118.439 F5400
G1 X97.804 Y82.476 E49.97441 F600
G0 X101.804 Y81.953 F5400
G1 X101.804 Y118.439 E51.79471 F600
G0 X105.804 Y117.655 F5400
G1 X105.804 Y81.822 E53.58238 F600
G0 X109.804 Y81.822 F5400
G1 X109.804 Y103.139 E54.64585 F600
G0 X113.804 Y103.139 F5400
G1 X113.804 Y81.822 E55.70933 F600
G0 X117.804 Y81.822 F5400
G1 X117.804 Y103.139 E56.77280 F600
G0 X121.804 Y103.139 F5400
G1 X121.804 Y81.822 E57.83627 F600
G0 X125.804 Y81.822 F5400
G1 X125.804 Y103.139 E58.89974 F600
G0 X129.804 Y103.139 F5400
G1 X129.804 Y81.822 E59.96322 F600
G0 X133.804 Y81.822 F5400
G1 X133.804 Y103.139 E61.02669 F600
G0 X137.804 Y103.139 F5400
G1 X137.804 Y81.822 E62.09016 F600
G0 X141.804 Y81.822 F5400
G1 X141.804 Y103.139 E63.15364 F600
G0 X145.804 Y103.139 F5400
G1 X145.804 Y81.822 E64.21710 F600
G0 X149.804 Y81.822 F5400
G1 X149.804 Y103.139 E65.28057 F600
G0 X153.804 Y117.393 F5400
G1 X153.804 Y81.822 E67.05520 F600
G0 X157.804 Y81.822 F5400
G1 X157.804 Y118.439 E68.88202 F600
G0 X161.804 Y118.439 F5400
G1 X161.804 Y82.476 E70.67622 F600
G0 X165.804 Y82.999 F5400
G1 X165.804 Y118.439 E72.44432 F600
G0 X169.804 Y118.439 F5400
G1 X169.804 Y83.653 E74.17980 F600
G0 X173.804 Y84.307 F5400
G1 X173.804 Y118.439 E75.88266 F600
G0 X177.804 Y118.439 F5400
G1 X177.804 Y84.830 E77.55942 F600
G0 X181.804 Y85.484 F5400
G1 X181.804 Y118.439 E79.20356 F600
G0 X185.804 Y118.439 F5400
G1 X185.804 Y86.007 E80.82160 F600
G0 X189.804 Y86.661 F5400
G1 X189.804 Y118.439 E82.40702 F600
G0 X193.804 Y118.439 F5400
G1 X193.804 Y87.184 E83.96635 F600
G0 X197.804 Y87.838 F5400
G1 X197.804 Y118.439 E85.49305 F600
G0 X201.804 Y118.439 F5400
G1 X201.804 Y88.492 E86.98713 F600
G0 X205.804 Y89.015 F5400
G1 X205.804 Y118.439 E88.45511 F600
G0 X209.804 Y118.439 F5400
G1 X209.804 Y89.669 E89.89047 F600
G0 X213.804 Y90.192 F5400
G1 X213.804 Y118.439 E91.29974 F600
G0 X217.804 Y118.439 F5400
G1 X217.804 Y90.846 E92.67638 F600
G0 X221.804 Y91.369 F5400
G1 X221.804 Y118.439 E94.02692 F600
G0 X225.804 Y118.047 F5400
G1 X225.804 Y92.284 E95.31222 F600



; ------------------------------------
; Raft Layer #1
; ------------------------------------
G92 E0 ;reset extr
G0 F600 Z0.600
;segType:Raft
G0 X227.165 Y92.196 F7200
G1 X32.573 Y92.196 E9.70825 F2400
G0 X31.135 Y93.529 F7200
G1 X228.604 Y93.529 E19.56004 F2400
G0 X229.781 Y94.863 F7200
G1 X29.958 Y94.863 E29.52927 F2400
G0 X29.696 Y101.529 F7200
G1 X230.042 Y101.529 E39.52460 F2400
G1 X230.042 Y100.196 E39.59112
G1 X29.696 Y100.196 E49.58645
G1 X29.696 Y98.863 E49.65297
G1 X230.042 Y98.863 E59.64830
G1 X230.042 Y97.529 E59.71482
G1 X29.696 Y97.529 E69.71014
G1 X29.696 Y96.196 E69.77666
G1 X230.042 Y96.196 E79.77198
G0 X223.896 Y90.863 F7200
G1 X35.842 Y90.863 E89.15401 F2400
G0 X44.604 Y89.529 F7200
G1 X215.134 Y89.529 E97.66179 F2400
G0 X206.372 Y88.196 F7200
G1 X53.366 Y88.196 E105.29530 F2400
G0 X62.128 Y86.863 F7200
G1 X197.741 Y86.863 E112.06106 F2400
G0 X188.064 Y85.529 F7200
G1 X71.805 Y85.529 E117.86122 F2400
G0 X80.436 Y84.196 F7200
G1 X179.302 Y84.196 E122.79364 F2400
G0 X170.540 Y82.863 F7200
G1 X89.198 Y82.863 E126.85179 F2400
G0 X97.960 Y81.529 F7200
G1 X161.778 Y81.529 E130.03568 F2400
G0 X150.532 Y114.863 F7200
G1 X229.912 Y114.863 E133.99597 F2400
G0 X230.042 Y113.529 F7200
G1 X150.270 Y113.529 E137.97583 F2400
G1 X150.270 Y112.196 E138.04234
G1 X230.042 Y112.196 E142.02220
G1 X230.042 Y110.863 E142.08871
G1 X150.270 Y110.863 E146.06857
G1 X150.270 Y109.529 E146.13509
G1 X230.042 Y109.529 E150.11494
G1 X230.042 Y108.196 E150.18146
G1 X150.270 Y108.196 E154.16132
G1 X150.270 Y106.863 E154.22783
G1 X230.042 Y106.863 E158.20769
G1 X230.042 Y105.529 E158.27420
G1 X150.270 Y105.529 E162.25406
G1 X150.270 Y104.196 E162.32057
G1 X230.042 Y104.196 E166.30043
G1 X230.042 Y102.863 E166.36694
G1 X29.696 Y102.863 E176.36228
G1 X29.696 Y104.196 E176.42878
G1 X109.468 Y104.196 E180.40864
G1 X109.468 Y105.529 E180.47516
G1 X29.696 Y105.529 E184.45502
G1 X29.696 Y106.863 E184.52154
G1 X109.468 Y106.863 E188.50138
G1 X109.468 Y108.196 E188.56790
G1 X29.696 Y108.196 E192.54776
G1 X29.696 Y109.529 E192.61428
G1 X109.468 Y109.529 E196.59414
G1 X109.468 Y110.863 E196.66064
G1 X29.696 Y110.863 E200.64050
G1 X29.696 Y112.196 E200.70702
G1 X109.468 Y112.196 E204.68688
G1 X109.468 Y113.529 E204.75338
G1 X29.696 Y113.529 E208.73324
G0 X29.827 Y114.863 F7200
G1 X109.207 Y114.863 E212.69352 F2400
G0 X108.291 Y116.196 F7200
G1 X30.873 Y116.196 E216.55596 F2400
G0 X32.181 Y117.529 F7200
G1 X106.984 Y117.529 E220.28788 F2400
G0 X105.545 Y118.863 F7200
G1 X33.619 Y118.863 E223.87628 F2400
G0 X151.447 Y116.196 F7200
G1 X228.865 Y116.196 E227.73870 F2400
G0 X227.558 Y117.529 F7200
G1 X152.755 Y117.529 E231.47064 F2400
G0 X154.324 Y118.863 F7200
G1 X226.119 Y118.863 E235.05252 F2400



; ------------------------------------
; Raft Layer #2
; ------------------------------------
G92 E0 ;reset extr
G0 F600 Z0.900
;segType:Raft
G0 F3000 E-1.00000
G0 F600 Z2.900
G0 X229.804 Y115.301 F7200
G0 F600 Z0.900
G0 F3000 E0.00000
G1 X229.804 Y94.900 E1.01780 F2400
G1 X229.404 Y94.377 E1.05065
G1 X229.404 Y115.824 E2.12065
G1 X229.004 Y116.216 E2.14860
G1 X229.004 Y93.984 E3.25774
G1 X228.604 Y93.592 E3.28570
G1 X228.604 Y116.608 E4.43399
G1 X228.204 Y117.001 E4.46194
G1 X228.204 Y93.200 E5.64937
G1 X227.804 Y92.807 E5.67733
G1 X227.804 Y117.393 E6.90391
G1 X227.404 Y117.785 E6.93186
G1 X227.404 Y92.415 E8.19759
G1 X227.004 Y92.023 E8.22554
G1 X227.004 Y118.178 E9.53041
G1 X226.604 Y118.570 E9.55836
G1 X226.604 Y91.761 E10.89586
G1 X226.204 Y91.500 E10.91970
G1 X226.204 Y118.832 E12.28330
G1 X225.804 Y119.093 E12.30714
G1 X225.804 Y91.238 E13.69683
G1 X225.404 Y91.107 E13.71782
G1 X225.404 Y119.224 E15.12056
G1 X225.004 Y119.224 E15.14052
G1 X225.004 Y91.107 E16.54326
G1 X224.604 Y90.977 E16.56425
G1 X224.604 Y119.224 E17.97352
G1 X224.204 Y119.224 E17.99347
G1 X224.204 Y90.977 E19.40273
G1 X223.804 Y90.846 E19.42373
G1 X223.804 Y119.224 E20.83952
G1 X223.404 Y119.224 E20.85947
G1 X223.404 Y90.846 E22.27526
G1 X223.004 Y90.715 E22.29626
G1 X223.004 Y119.224 E23.71857
G1 X222.604 Y119.224 E23.73852
G1 X222.604 Y90.715 E25.16084
G1 X222.204 Y90.584 E25.18183
G1 X222.204 Y119.224 E26.61067
G1 X221.804 Y119.224 E26.63063
G1 X221.804 Y90.584 E28.05946
G1 X221.404 Y90.584 E28.07942
G1 X221.404 Y119.224 E29.50826
G1 X221.004 Y119.224 E29.52821
G1 X221.004 Y90.453 E30.96357
G1 X220.604 Y90.453 E30.98353
G1 X220.604 Y119.224 E32.41889
G1 X220.204 Y119.224 E32.43884
G1 X220.204 Y90.323 E33.88073
G1 X219.804 Y90.323 E33.90068
G1 X219.804 Y119.224 E35.34256
G1 X219.404 Y119.224 E35.36252
G1 X219.404 Y90.192 E36.81093
G1 X219.004 Y90.192 E36.83088
G1 X219.004 Y119.224 E38.27929
G1 X218.604 Y119.224 E38.29925
G1 X218.604 Y90.061 E39.75418
G1 X218.204 Y90.061 E39.77414
G1 X218.204 Y119.224 E41.22907
G1 X217.804 Y119.224 E41.24902
G1 X217.804 Y89.930 E42.71048
G1 X217.404 Y89.930 E42.73044
G1 X217.404 Y119.224 E44.19189
G1 X217.004 Y119.224 E44.21185
G1 X217.004 Y89.800 E45.67983
G1 X216.604 Y89.800 E45.69979
G1 X216.604 Y119.224 E47.16777
G1 X216.204 Y119.224 E47.18772
G1 X216.204 Y89.800 E48.65571
G1 X215.804 Y89.669 E48.67670
G1 X215.804 Y119.224 E50.15121
G1 X215.404 Y119.224 E50.17116
G1 X215.404 Y89.669 E51.64567
G1 X215.004 Y89.538 E51.66667
G1 X215.004 Y119.224 E53.14770
G1 X214.604 Y119.224 E53.16765
G1 X214.604 Y89.538 E54.64868
G1 X214.204 Y89.407 E54.66968
G1 X214.204 Y119.224 E56.15723
G1 X213.804 Y119.224 E56.17719
G1 X213.804 Y89.407 E57.66474
G1 X213.404 Y89.276 E57.68574
G1 X213.404 Y119.224 E59.17982
G1 X213.004 Y119.224 E59.19977
G1 X213.004 Y89.276 E60.69385
G1 X212.604 Y89.276 E60.71381
G1 X212.604 Y119.224 E62.20789
G1 X212.204 Y119.224 E62.22784
G1 X212.204 Y89.146 E63.72845
G1 X211.804 Y89.146 E63.74840
G1 X211.804 Y119.224 E65.24900
G1 X211.404 Y119.224 E65.26896
G1 X211.404 Y89.015 E66.77609
G1 X211.004 Y89.015 E66.79605
G1 X211.004 Y119.224 E68.30317
G1 X210.604 Y119.224 E68.32313
G1 X210.604 Y88.884 E69.83678
G1 X210.204 Y88.884 E69.85674
G1 X210.204 Y119.224 E71.37039
G1 X209.804 Y119.224 E71.39035
G1 X209.804 Y88.753 E72.91052
G1 X209.404 Y88.753 E72.93048
G1 X209.404 Y119.224 E74.45066
G1 X209.004 Y119.224 E74.47062
G1 X209.004 Y88.623 E75.99732
G1 X208.604 Y88.623 E76.01728
G1 X208.604 Y119.224 E77.54399
G1 X208.204 Y119.224 E77.56394
G1 X208.204 Y88.492 E79.09717
G1 X207.804 Y88.492 E79.11713
G1 X207.804 Y119.224 E80.65035
G1 X207.404 Y119.224 E80.67031
G1 X207.404 Y88.492 E82.20354
G1 X207.004 Y88.361 E82.22454
G1 X207.004 Y119.224 E83.76428
G1 X206.604 Y119.224 E83.78424
G1 X206.604 Y88.361 E85.32399
G1 X206.204 Y88.230 E85.34499
G1 X206.204 Y119.224 E86.89126
G1 X205.804 Y119.224 E86.91122
G1 X205.804 Y88.230 E88.45749
G1 X205.404 Y88.100 E88.47849
G1 X205.404 Y119.224 E90.03128
G1 X205.004 Y119.224 E90.05124
G1 X205.004 Y88.100 E91.60403
G1 X204.604 Y87.969 E91.62503
G1 X204.604 Y119.224 E93.18436
G1 X204.204 Y119.224 E93.20432
G1 X204.204 Y87.969 E94.76364
G1 X203.804 Y87.838 E94.78464
G1 X203.804 Y119.224 E96.35049
G1 X203.404 Y119.224 E96.37045
G1 X203.404 Y87.838 E97.93629
G1 X203.004 Y87.707 E97.95729
G1 X203.004 Y119.224 E99.52966
G1 X202.604 Y119.224 E99.54962
G1 X202.604 Y87.707 E101.12199
G1 X202.204 Y87.707 E101.14195
G1 X202.204 Y119.224 E102.71432
G1 X201.804 Y119.224 E102.73428
G1 X201.804 Y87.576 E104.31318
G1 X201.404 Y87.576 E104.33314
G1 X201.404 Y119.224 E105.91203
G1 X201.004 Y119.224 E105.93199
G1 X201.004 Y87.446 E107.51741
G1 X200.604 Y87.446 E107.53737
G1 X200.604 Y119.224 E109.12279
G1 X200.204 Y119.224 E109.14275
G1 X200.204 Y87.315 E110.73469
G1 X199.804 Y87.315 E110.75465
G1 X199.804 Y119.224 E112.34659
G1 X199.404 Y119.224 E112.36655
G1 X199.404 Y87.184 E113.96502
G1 X199.004 Y87.184 E113.98498
G1 X199.004 Y119.224 E115.58345
G1 X198.604 Y119.224 E115.60341
G1 X198.604 Y87.184 E117.20188
G1 X198.204 Y87.053 E117.22288
G1 X198.204 Y119.224 E118.82787
G1 X197.804 Y119.224 E118.84783
G1 X197.804 Y86.923 E120.45935
G1 X197.404 Y86.923 E120.47931
G1 X197.404 Y119.224 E122.09083
G1 X197.004 Y119.224 E122.11079
G1 X197.004 Y86.923 E123.72231
G1 X196.604 Y86.792 E123.74330
G1 X196.604 Y119.224 E125.36134
G1 X196.204 Y119.224 E125.38130
G1 X196.204 Y86.792 E126.99934
G1 X195.804 Y86.661 E127.02034
G1 X195.804 Y119.224 E128.64491
G1 X195.404 Y119.224 E128.66487
G1 X195.404 Y86.661 E130.28944
G1 X195.004 Y86.530 E130.31044
G1 X195.004 Y119.224 E131.94153
G1 X194.604 Y119.224 E131.96149
G1 X194.604 Y86.530 E133.59258
G1 X194.204 Y86.399 E133.61357
G1 X194.204 Y119.224 E135.25119
G1 X193.804 Y119.224 E135.27115
G1 X193.804 Y86.399 E136.90877
G1 X193.404 Y86.399 E136.92873
G1 X193.404 Y119.224 E138.56635
G1 X193.004 Y119.224 E138.58630
G1 X193.004 Y86.269 E140.23044
G1 X192.604 Y86.269 E140.25040
G1 X192.604 Y119.224 E141.89453
G1 X192.204 Y119.224 E141.91449
G1 X192.204 Y86.138 E143.56516
G1 X191.804 Y86.138 E143.58511
G1 X191.804 Y119.224 E145.23578
G1 X191.404 Y119.224 E145.25574
G1 X191.404 Y86.007 E146.91293
G1 X191.004 Y86.007 E146.93289
G1 X191.004 Y119.224 E148.59009
G1 X190.604 Y119.224 E148.61005
G1 X190.604 Y85.876 E150.27376
G1 X190.204 Y85.876 E150.29372
G1 X190.204 Y119.224 E151.95743
G1 X189.804 Y119.224 E151.97739
G1 X189.804 Y85.746 E153.64763
G1 X189.404 Y85.746 E153.66759
G1 X189.404 Y119.224 E155.33783
G1 X189.004 Y119.224 E155.35779
G1 X189.004 Y85.615 E157.03455
G1 X188.604 Y85.615 E157.05450
G1 X188.604 Y119.224 E158.73126
G1 X188.204 Y119.224 E158.75122
G1 X188.204 Y85.615 E160.42798
G1 X187.804 Y85.484 E160.44897
G1 X187.804 Y119.224 E162.13226
G1 X187.404 Y119.224 E162.15222
G1 X187.404 Y85.484 E163.83551
G1 X187.004 Y85.353 E163.85651
G1 X187.004 Y119.224 E165.54631
G1 X186.604 Y119.224 E165.56627
G1 X186.604 Y85.353 E167.25607
G1 X186.204 Y85.222 E167.27707
G1 X186.204 Y119.224 E168.97340
G1 X185.804 Y119.224 E168.99336
G1 X185.804 Y85.222 E170.68970
G1 X185.404 Y85.092 E170.71070
G1 X185.404 Y119.224 E172.41356
G1 X185.004 Y119.224 E172.43352
G1 X185.004 Y85.092 E174.13638
G1 X184.604 Y85.092 E174.15634
G1 X184.604 Y119.224 E175.85920
G1 X184.204 Y119.224 E175.87916
G1 X184.204 Y84.961 E177.58854
G1 X183.804 Y84.961 E177.60850
G1 X183.804 Y119.224 E179.31788
G1 X183.404 Y119.224 E179.33784
G1 X183.404 Y84.830 E181.05376
G1 X183.004 Y84.830 E181.07372
G1 X183.004 Y119.224 E182.78962
G1 X182.604 Y119.224 E182.80958
G1 X182.604 Y84.699 E184.53202
G1 X182.204 Y84.699 E184.55198
G1 X182.204 Y119.224 E186.27440
G1 X181.804 Y119.224 E186.29436
G1 X181.804 Y84.569 E188.02332
G1 X181.404 Y84.569 E188.04328
G1 X181.404 Y119.224 E189.77224
G1 X181.004 Y119.224 E189.79220
G1 X181.004 Y84.438 E191.52766
G1 X180.604 Y84.438 E191.54762
G1 X180.604 Y119.224 E193.28310
G1 X180.204 Y119.224 E193.30306
G1 X180.204 Y84.307 E195.04506
G1 X179.804 Y84.307 E195.06502
G1 X179.804 Y119.224 E196.80702
G1 X179.404 Y119.224 E196.82698
G1 X179.404 Y84.307 E198.56898
G1 X179.004 Y84.176 E198.58998
G1 X179.004 Y119.224 E200.33852
G1 X178.604 Y119.224 E200.35848
G1 X178.604 Y84.176 E202.10700
G1 X178.204 Y84.046 E202.12800
G1 X178.204 Y119.224 E203.88306
G1 X177.804 Y119.224 E203.90302
G1 X177.804 Y84.046 E205.65806
G1 X177.404 Y83.915 E205.67906
G1 X177.404 Y119.224 E207.44064
G1 X177.004 Y119.224 E207.46060
G1 X177.004 Y83.915 E209.22218
G1 X176.604 Y83.784 E209.24318
G1 X176.604 Y119.224 E211.01128
G1 X176.204 Y119.224 E211.03124
G1 X176.204 Y83.784 E212.79934
G1 X175.804 Y83.653 E212.82032
G1 X175.804 Y119.224 E214.59496
G1 X175.404 Y119.224 E214.61492
G1 X175.404 Y83.653 E216.38954
G1 X175.004 Y83.653 E216.40950
G1 X175.004 Y119.224 E218.18412
G1 X174.604 Y119.224 E218.20408
G1 X174.604 Y83.522 E219.98524
G1 X174.204 Y83.522 E220.00520
G1 X174.204 Y119.224 E221.78636
G1 X173.804 Y119.224 E221.80632
G1 X173.804 Y83.392 E223.59400
G1 X173.404 Y83.392 E223.61396
G1 X173.404 Y119.224 E225.40162
G1 X173.004 Y119.224 E225.42158
G1 X173.004 Y83.261 E227.21578
G1 X172.604 Y83.261 E227.23574
G1 X172.604 Y119.224 E229.02996
G1 X172.204 Y119.224 E229.04992
G1 X172.204 Y83.130 E230.85064
G1 X171.804 Y83.130 E230.87060
G1 X171.804 Y119.224 E232.67132
G1 X171.404 Y119.224 E232.69126
G1 X171.404 Y82.999 E234.49852
G1 X171.004 Y82.999 E234.51848
G1 X171.004 Y119.224 E236.32572
G1 X170.604 Y119.224 E236.34568
G1 X170.604 Y82.869 E238.15946
G1 X170.204 Y82.869 E238.17942
G1 X170.204 Y119.224 E239.99318
G1 X169.804 Y119.224 E240.01314
G1 X169.804 Y82.869 E241.82690
G1 X169.404 Y82.738 E241.84790
G1 X169.404 Y119.224 E243.66820
G1 X169.004 Y119.224 E243.68816
G1 X169.004 Y82.738 E245.50846
G1 X168.604 Y82.607 E245.52944
G1 X168.604 Y119.224 E247.35628
G1 X168.204 Y119.224 E247.37624
G1 X168.204 Y82.607 E249.20306
G1 X167.804 Y82.476 E249.22406
G1 X167.804 Y119.224 E251.05740
G1 X167.404 Y119.224 E251.07736
G1 X167.404 Y82.476 E252.91070
G1 X167.004 Y82.345 E252.93170
G1 X167.004 Y119.224 E254.77158
G1 X166.604 Y119.224 E254.79154
G1 X166.604 Y82.345 E256.63140
G1 X166.203 Y82.215 E256.65240
G1 X166.203 Y119.224 E258.49880
G1 X165.804 Y119.224 E258.51876
G1 X165.804 Y82.215 E260.36518
G1 X165.403 Y82.215 E260.38514
G1 X165.403 Y119.224 E262.23154
G1 X165.004 Y119.224 E262.25150
G1 X165.004 Y82.084 E264.10440
G1 X164.603 Y82.084 E264.12436
G1 X164.603 Y119.224 E265.97726
G1 X164.203 Y119.224 E265.99722
G1 X164.203 Y81.953 E267.85666
G1 X163.803 Y81.953 E267.87662
G1 X163.803 Y119.224 E269.73606
G1 X163.403 Y119.224 E269.75602
G1 X163.403 Y81.822 E271.62198
G1 X163.003 Y81.822 E271.64194
G1 X163.003 Y119.224 E273.50790
G1 X162.603 Y119.224 E273.52786
G1 X162.603 Y81.692 E275.40036
G1 X162.203 Y81.692 E275.42032
G1 X162.203 Y119.224 E277.29282
G1 X161.803 Y119.224 E277.31278
G1 X161.803 Y81.561 E279.19180
G1 X161.403 Y81.561 E279.21176
G1 X161.403 Y119.224 E281.09078
G1 X161.003 Y119.224 E281.11074
G1 X161.003 Y81.561 E282.98978
G1 X160.603 Y81.430 E283.01078
G1 X160.603 Y119.224 E284.89630
G1 X160.203 Y119.224 E284.91626
G1 X160.203 Y81.430 E286.80178
G1 X159.803 Y81.299 E286.82278
G1 X159.803 Y119.224 E288.71484
G1 X159.403 Y119.224 E288.73480
G1 X159.403 Y81.299 E290.62686
G1 X159.003 Y81.168 E290.64786
G1 X159.003 Y119.224 E292.54644
G1 X158.603 Y119.224 E292.56640
G1 X158.603 Y81.168 E294.46500
G1 X158.203 Y81.038 E294.48600
G1 X158.203 Y119.224 E296.39112
G1 X157.803 Y119.224 E296.41108
G1 X157.803 Y81.038 E298.31620
G1 X157.403 Y81.038 E298.33616
G1 X157.403 Y119.224 E300.24128
G1 X157.003 Y119.224 E300.26124
G1 X157.003 Y81.038 E302.16636
G1 X156.603 Y81.038 E302.18630
G1 X156.603 Y119.224 E304.09144
G1 X156.203 Y119.224 E304.11138
G1 X156.203 Y81.038 E306.01652
G1 X155.803 Y81.038 E306.03646
G1 X155.803 Y119.224 E307.94158
G1 X155.403 Y119.224 E307.96154
G1 X155.403 Y81.038 E309.86666
G1 X155.003 Y81.038 E309.88662
G1 X155.003 Y119.093 E311.78522
G1 X154.603 Y118.962 E311.80622
G1 X154.603 Y81.038 E313.69828
G1 X154.203 Y81.038 E313.71824
G1 X154.203 Y118.832 E315.60376
G1 X153.803 Y118.570 E315.62760
G1 X153.803 Y81.038 E317.50010
G1 X153.403 Y81.038 E317.52006
G1 X153.403 Y118.178 E319.37296
G1 X153.003 Y117.785 E319.40090
G1 X153.003 Y81.038 E321.23426
G1 X152.603 Y81.038 E321.25422
G1 X152.603 Y117.393 E323.06800
G1 X152.203 Y117.001 E323.09594
G1 X152.203 Y81.038 E324.89014
G1 X151.803 Y81.038 E324.91010
G1 X151.803 Y116.608 E326.68472
G1 X151.403 Y116.216 E326.71268
G1 X151.403 Y81.038 E328.46774
G1 X151.003 Y81.038 E328.48770
G1 X151.003 Y115.824 E330.22318
G1 X150.603 Y115.170 E330.26142
G1 X150.603 Y81.038 E331.96426
G1 X150.203 Y81.038 E331.98422
G1 X150.203 Y103.923 E333.12598
G1 X149.803 Y103.923 E333.14594
G1 X149.803 Y81.038 E334.28768
G1 X149.403 Y81.038 E334.30764
G1 X149.403 Y103.923 E335.44940
G1 X149.003 Y103.923 E335.46936
G1 X149.003 Y81.038 E336.61112
G1 X148.603 Y81.038 E336.63108
G1 X148.603 Y103.923 E337.77284
G1 X148.203 Y103.923 E337.79280
G1 X148.203 Y81.038 E338.93452
G1 X147.803 Y81.038 E338.95448
G1 X147.803 Y103.923 E340.09624
G1 X147.403 Y103.923 E340.11620
G1 X147.403 Y81.038 E341.25796
G1 X147.003 Y81.038 E341.27792
G1 X147.003 Y103.923 E342.41968
G1 X146.603 Y103.923 E342.43964
G1 X146.603 Y81.038 E343.58140
G1 X146.203 Y81.038 E343.60136
G1 X146.203 Y103.923 E344.74312
G1 X145.803 Y103.923 E344.76308
G1 X145.803 Y81.038 E345.90480
G1 X145.403 Y81.038 E345.92476
G1 X145.403 Y103.923 E347.06652
G1 X145.003 Y103.923 E347.08648
G1 X145.003 Y81.038 E348.22824
G1 X144.603 Y81.038 E348.24820
G1 X144.603 Y103.923 E349.38996
G1 X144.203 Y103.923 E349.40992
G1 X144.203 Y81.038 E350.55168
G1 X143.803 Y81.038 E350.57164
G1 X143.803 Y103.923 E351.71336
G1 X143.403 Y103.923 E351.73332
G1 X143.403 Y81.038 E352.87508
G1 X143.003 Y81.038 E352.89504
G1 X143.003 Y103.923 E354.03680
G1 X142.603 Y103.923 E354.05676
G1 X142.603 Y81.038 E355.19852
G1 X142.203 Y81.038 E355.21848
G1 X142.203 Y103.923 E356.36024
G1 X141.803 Y103.923 E356.38020
G1 X141.803 Y81.038 E357.52196
G1 X141.403 Y81.038 E357.54192
G1 X141.403 Y103.923 E358.68364
G1 X141.003 Y103.923 E358.70360
G1 X141.003 Y81.038 E359.84536
G1 X140.603 Y81.038 E359.86532
G1 X140.603 Y103.923 E361.00708
G1 X140.203 Y103.923 E361.02704
G1 X140.203 Y81.038 E362.16880
G1 X139.803 Y81.038 E362.18876
G1 X139.803 Y103.923 E363.33052
G1 X139.403 Y103.923 E363.35048
G1 X139.403 Y81.038 E364.49220
G1 X139.003 Y81.038 E364.51216
G1 X139.003 Y103.923 E365.65392
G1 X138.603 Y103.923 E365.67388
G1 X138.603 Y81.038 E366.81564
G1 X138.203 Y81.038 E366.83560
G1 X138.203 Y103.923 E367.97736
G1 X137.803 Y103.923 E367.99732
G1 X137.803 Y81.038 E369.13908
G1 X137.403 Y81.038 E369.15904
G1 X137.403 Y103.923 E370.30080
G1 X137.003 Y103.923 E370.32072
G1 X137.003 Y81.038 E371.46248
G1 X136.603 Y81.038 E371.48244
G1 X136.603 Y103.923 E372.62420
G1 X136.203 Y103.923 E372.64416
G1 X136.203 Y81.038 E373.78592
G1 X135.803 Y81.038 E373.80588
G1 X135.803 Y103.923 E374.94764
G1 X135.403 Y103.923 E374.96760
G1 X135.403 Y81.038 E376.10936
G1 X135.003 Y81.038 E376.12932
G1 X135.003 Y103.923 E377.27104
G1 X134.603 Y103.923 E377.29100
G1 X134.603 Y81.038 E378.43276
G1 X134.203 Y81.038 E378.45272
G1 X134.203 Y103.923 E379.59448
G1 X133.803 Y103.923 E379.61444
G1 X133.803 Y81.038 E380.75620
G1 X133.403 Y81.038 E380.77616
G1 X133.403 Y103.923 E381.91792
G1 X133.003 Y103.923 E381.93788
G1 X133.003 Y81.038 E383.07964
G1 X132.603 Y81.038 E383.09956
G1 X132.603 Y103.923 E384.24132
G1 X132.203 Y103.923 E384.26128
G1 X132.203 Y81.038 E385.40304
G1 X131.803 Y81.038 E385.42300
G1 X131.803 Y103.923 E386.56476
G1 X131.403 Y103.923 E386.58472
G1 X131.403 Y81.038 E387.72648
G1 X131.003 Y81.038 E387.74644
G1 X131.003 Y103.923 E388.88820
G1 X130.603 Y103.923 E388.90816
G1 X130.603 Y81.038 E390.04988
G1 X130.203 Y81.038 E390.06984
G1 X130.203 Y103.923 E391.21160
G1 X129.803 Y103.923 E391.23156
G1 X129.803 Y81.038 E392.37332
G1 X129.403 Y81.038 E392.39328
G1 X129.403 Y103.923 E393.53504
G1 X129.003 Y103.923 E393.55500
G1 X129.003 Y81.038 E394.69676
G1 X128.603 Y81.038 E394.71672
G1 X128.603 Y103.923 E395.85844
G1 X128.203 Y103.923 E395.87840
G1 X128.203 Y81.038 E397.02016
G1 X127.803 Y81.038 E397.04012
G1 X127.803 Y103.923 E398.18188
G1 X127.403 Y103.923 E398.20184
G1 X127.403 Y81.038 E399.34360
G1 X127.003 Y81.038 E399.36356
G1 X127.003 Y103.923 E400.50532
G1 X126.603 Y103.923 E400.52528
G1 X126.603 Y81.038 E401.66704
G1 X126.203 Y81.038 E401.68700
G1 X126.203 Y103.923 E402.82872
G1 X125.803 Y103.923 E402.84868
G1 X125.803 Y81.038 E403.99044
G1 X125.403 Y81.038 E404.01040
G1 X125.403 Y103.923 E405.15216
G1 X125.003 Y103.923 E405.17212
G1 X125.003 Y81.038 E406.31388
G1 X124.603 Y81.038 E406.33384
G1 X124.603 Y103.923 E407.47560
G1 X124.203 Y103.923 E407.49556
G1 X124.203 Y81.038 E408.63728
G1 X123.803 Y81.038 E408.65724
G1 X123.803 Y103.923 E409.79900
G1 X123.403 Y103.923 E409.81896
G1 X123.403 Y81.038 E410.96072
G1 X123.003 Y81.038 E410.98068
G1 X123.003 Y103.923 E412.12244
G1 X122.603 Y103.923 E412.14240
G1 X122.603 Y81.038 E413.28416
G1 X122.203 Y81.038 E413.30412
G1 X122.203 Y103.923 E414.44588
G1 X121.803 Y103.923 E414.46584
G1 X121.803 Y81.038 E415.60756
G1 X121.403 Y81.038 E415.62752
G1 X121.403 Y103.923 E416.76928
G1 X121.003 Y103.923 E416.78924
G1 X121.003 Y81.038 E417.93100
G1 X120.603 Y81.038 E417.95096
G1 X120.603 Y103.923 E419.09272
G1 X120.203 Y103.923 E419.11268
G1 X120.203 Y81.038 E420.25444
G1 X119.803 Y81.038 E420.27440
G1 X119.803 Y103.923 E421.41612
G1 X119.403 Y103.923 E421.43608
G1 X119.403 Y81.038 E422.57784
G1 X119.003 Y81.038 E422.59780
G1 X119.003 Y103.923 E423.73956
G1 X118.603 Y103.923 E423.75952
G1 X118.603 Y81.038 E424.90128
G1 X118.203 Y81.038 E424.92124
G1 X118.203 Y103.923 E426.06300
G1 X117.803 Y103.923 E426.08296
G1 X117.803 Y81.038 E427.22472
G1 X117.403 Y81.038 E427.24464
G1 X117.403 Y103.923 E428.38640
G1 X117.003 Y103.923 E428.40636
G1 X117.003 Y81.038 E429.54812
G1 X116.603 Y81.038 E429.56808
G1 X116.603 Y103.923 E430.70984
G1 X116.203 Y103.923 E430.72980
G1 X116.203 Y81.038 E431.87156
G1 X115.803 Y81.038 E431.89152
G1 X115.803 Y103.923 E433.03328
G1 X115.403 Y103.923 E433.05324
G1 X115.403 Y81.038 E434.19496
G1 X115.003 Y81.038 E434.21492
G1 X115.003 Y103.923 E435.35668
G1 X114.603 Y103.923 E435.37664
G1 X114.603 Y81.038 E436.51840
G1 X114.203 Y81.038 E436.53836
G1 X114.203 Y103.923 E437.68012
G1 X113.803 Y103.923 E437.70008
G1 X113.803 Y81.038 E438.84184
G1 X113.403 Y81.038 E438.86180
G1 X113.403 Y103.923 E440.00356
G1 X113.003 Y103.923 E440.02348
G1 X113.003 Y81.038 E441.16524
G1 X112.603 Y81.038 E441.18520
G1 X112.603 Y103.923 E442.32696
G1 X112.203 Y103.923 E442.34692
G1 X112.203 Y81.038 E443.48868
G1 X111.803 Y81.038 E443.50864
G1 X111.803 Y103.923 E444.65040
G1 X111.403 Y103.923 E444.67036
G1 X111.403 Y81.038 E445.81212
G1 X111.003 Y81.038 E445.83208
G1 X111.003 Y103.923 E446.97380
G1 X110.603 Y103.923 E446.99376
G1 X110.603 Y81.038 E448.13552
G1 X110.203 Y81.038 E448.15548
G1 X110.203 Y103.923 E449.29724
G1 X109.803 Y103.923 E449.31720
G1 X109.803 Y81.038 E450.45896
G1 X109.403 Y81.038 E450.47892
G1 X109.403 Y114.385 E452.14264
G0 X109.003 Y115.693 F7200
G1 X109.003 Y81.038 E453.87160 F2400
G1 X108.603 Y81.038 E453.89156
G1 X108.603 Y116.085 E455.64008
G1 X108.203 Y116.478 E455.66804
G1 X108.203 Y81.038 E457.43612
G1 X107.803 Y81.038 E457.45608
G1 X107.803 Y116.870 E459.24376
G1 X107.403 Y117.262 E459.27172
G1 X107.403 Y81.038 E461.07896
G1 X107.003 Y81.038 E461.09892
G1 X107.003 Y117.655 E462.92576
G1 X106.603 Y118.047 E462.95372
G1 X106.603 Y81.038 E464.80012
G1 X106.203 Y81.038 E464.82008
G1 X106.203 Y118.439 E466.68604
G1 X105.803 Y118.701 E466.70988
G1 X105.803 Y81.038 E468.58888
G1 X105.403 Y81.038 E468.60884
G1 X105.403 Y118.962 E470.50092
G1 X105.003 Y119.093 E470.52192
G1 X105.003 Y81.038 E472.42052
G1 X104.603 Y81.038 E472.44048
G1 X104.603 Y119.224 E474.34560
G1 X104.203 Y119.224 E474.36552
G1 X104.203 Y81.038 E476.27068
G1 X103.803 Y81.038 E476.29060
G1 X103.803 Y119.224 E478.19572
G1 X103.403 Y119.224 E478.21568
G1 X103.403 Y81.038 E480.12080
G1 X103.003 Y81.038 E480.14076
G1 X103.003 Y119.224 E482.04588
G1 X102.603 Y119.224 E482.06584
G1 X102.603 Y81.038 E483.97096
G1 X102.203 Y81.038 E483.99092
G1 X102.203 Y119.224 E485.89604
G1 X101.803 Y119.224 E485.91600
G1 X101.803 Y81.038 E487.82112
G1 X101.403 Y81.168 E487.84212
G1 X101.403 Y119.224 E489.74072
G1 X101.003 Y119.224 E489.76068
G1 X101.003 Y81.168 E491.65928
G1 X100.603 Y81.299 E491.68028
G1 X100.603 Y119.224 E493.57232
G1 X100.203 Y119.224 E493.59228
G1 X100.203 Y81.299 E495.48436
G1 X99.803 Y81.430 E495.50536
G1 X99.803 Y119.224 E497.39088
G1 X99.403 Y119.224 E497.41084
G1 X99.403 Y81.430 E499.29636
G1 X99.003 Y81.430 E499.31632
G1 X99.003 Y119.224 E501.20184
G1 X98.603 Y119.224 E501.22180
G1 X98.603 Y81.561 E503.10084
G1 X98.203 Y81.561 E503.12080
G1 X98.203 Y119.224 E504.99980
G1 X97.803 Y119.224 E505.01976
G1 X97.803 Y81.692 E506.89228
G1 X97.403 Y81.692 E506.91224
G1 X97.403 Y119.224 E508.78472
G1 X97.003 Y119.224 E508.80468
G1 X97.003 Y81.822 E510.67064
G1 X96.603 Y81.822 E510.69060
G1 X96.603 Y119.224 E512.55656
G1 X96.203 Y119.224 E512.57652
G1 X96.203 Y81.953 E514.43596
G1 X95.803 Y81.953 E514.45592
G1 X95.803 Y119.224 E516.31536
G1 X95.403 Y119.224 E516.33532
G1 X95.403 Y82.084 E518.18824
G1 X95.003 Y82.084 E518.20820
G1 X95.003 Y119.224 E520.06108
G1 X94.603 Y119.224 E520.08104
G1 X94.603 Y82.215 E521.92744
G1 X94.203 Y82.215 E521.94740
G1 X94.203 Y119.224 E523.79376
G1 X93.803 Y119.224 E523.81372
G1 X93.803 Y82.215 E525.66008
G1 X93.403 Y82.345 E525.68108
G1 X93.403 Y119.224 E527.52092
G1 X93.003 Y119.224 E527.54088
G1 X93.003 Y82.345 E529.38072
G1 X92.603 Y82.476 E529.40172
G1 X92.603 Y119.224 E531.23512
G1 X92.203 Y119.224 E531.25508
G1 X92.203 Y82.476 E533.08844
G1 X91.803 Y82.607 E533.10944
G1 X91.803 Y119.224 E534.93628
G1 X91.403 Y119.224 E534.95624
G1 X91.403 Y82.607 E536.78308
G1 X91.003 Y82.738 E536.80408
G1 X91.003 Y119.224 E538.62440
G1 X90.603 Y119.224 E538.64436
G1 X90.603 Y82.738 E540.46468
G1 X90.203 Y82.738 E540.48460
G1 X90.203 Y119.224 E542.30492
G1 X89.803 Y119.224 E542.32488
G1 X89.803 Y82.869 E544.13868
G1 X89.403 Y82.869 E544.15864
G1 X89.403 Y119.224 E545.97240
G1 X89.003 Y119.224 E545.99236
G1 X89.003 Y82.999 E547.79964
G1 X88.603 Y82.999 E547.81960
G1 X88.603 Y119.224 E549.62684
G1 X88.203 Y119.224 E549.64680
G1 X88.203 Y83.130 E551.44752
G1 X87.803 Y83.130 E551.46748
G1 X87.803 Y119.224 E553.26820
G1 X87.403 Y119.224 E553.28816
G1 X87.403 Y83.261 E555.08232
G1 X87.003 Y83.261 E555.10228
G1 X87.003 Y119.224 E556.89648
G1 X86.603 Y119.224 E556.91644
G1 X86.603 Y83.392 E558.70412
G1 X86.203 Y83.392 E558.72408
G1 X86.203 Y119.224 E560.51172
G1 X85.803 Y119.224 E560.53168
G1 X85.803 Y83.522 E562.31280
G1 X85.403 Y83.522 E562.33276
G1 X85.403 Y119.224 E564.11388
G1 X85.003 Y119.224 E564.13384
G1 X85.003 Y83.522 E565.91496
G1 X84.603 Y83.653 E565.93596
G1 X84.603 Y119.224 E567.71056
G1 X84.203 Y119.224 E567.73052
G1 X84.203 Y83.653 E569.50512
G1 X83.803 Y83.784 E569.52612
G1 X83.803 Y119.224 E571.29424
G1 X83.403 Y119.224 E571.31420
G1 X83.403 Y83.784 E573.08232
G1 X83.003 Y83.915 E573.10332
G1 X83.003 Y119.224 E574.86492
G1 X82.603 Y119.224 E574.88488
G1 X82.603 Y83.915 E576.64648
G1 X82.203 Y84.046 E576.66748
G1 X82.203 Y119.224 E578.42256
G1 X81.803 Y119.224 E578.44252
G1 X81.803 Y84.046 E580.19756
G1 X81.403 Y84.176 E580.21856
G1 X81.403 Y119.224 E581.96712
G1 X81.003 Y119.224 E581.98708
G1 X81.003 Y84.176 E583.73560
G1 X80.603 Y84.176 E583.75556
G1 X80.603 Y119.224 E585.50408
G1 X80.203 Y119.224 E585.52404
G1 X80.203 Y84.307 E587.26604
G1 X79.803 Y84.307 E587.28600
G1 X79.803 Y119.224 E589.02800
G1 X79.403 Y119.224 E589.04796
G1 X79.403 Y84.438 E590.78344
G1 X79.003 Y84.438 E590.80340
G1 X79.003 Y119.224 E592.53888
G1 X78.603 Y119.224 E592.55884
G1 X78.603 Y84.569 E594.28780
G1 X78.203 Y84.569 E594.30772
G1 X78.203 Y119.224 E596.03668
G1 X77.803 Y119.224 E596.05664
G1 X77.803 Y84.699 E597.77904
G1 X77.403 Y84.699 E597.79900
G1 X77.403 Y119.224 E599.52144
G1 X77.003 Y119.224 E599.54140
G1 X77.003 Y84.830 E601.25728
G1 X76.603 Y84.830 E601.27724
G1 X76.603 Y119.224 E602.99312
G1 X76.203 Y119.224 E603.01308
G1 X76.203 Y84.830 E604.72896
G1 X75.803 Y84.961 E604.74992
G1 X75.803 Y119.224 E606.45936
G1 X75.403 Y119.224 E606.47932
G1 X75.403 Y84.961 E608.18872
G1 X75.003 Y85.092 E608.20972
G1 X75.003 Y119.224 E609.91260
G1 X74.603 Y119.224 E609.93256
G1 X74.603 Y85.092 E611.63544
G1 X74.203 Y85.222 E611.65644
G1 X74.203 Y119.224 E613.35280
G1 X73.803 Y119.224 E613.37276
G1 X73.803 Y85.222 E615.06908
G1 X73.403 Y85.353 E615.09008
G1 X73.403 Y119.224 E616.77992
G1 X73.003 Y119.224 E616.79988
G1 X73.003 Y85.353 E618.48968
G1 X72.603 Y85.484 E618.51068
G1 X72.603 Y119.224 E620.19396
G1 X72.203 Y119.224 E620.21392
G1 X72.203 Y85.484 E621.89720
G1 X71.803 Y85.615 E621.91820
G1 X71.803 Y119.224 E623.59496
G1 X71.403 Y119.224 E623.61492
G1 X71.403 Y85.615 E625.29168
G1 X71.003 Y85.615 E625.31164
G1 X71.003 Y119.224 E626.98840
G1 X70.603 Y119.224 E627.00836
G1 X70.603 Y85.746 E628.67860
G1 X70.203 Y85.746 E628.69856
G1 X70.203 Y119.224 E630.36876
G1 X69.803 Y119.224 E630.38872
G1 X69.803 Y85.876 E632.05244
G1 X69.403 Y85.876 E632.07240
G1 X69.403 Y119.224 E633.73608
G1 X69.003 Y119.224 E633.75604
G1 X69.003 Y86.007 E635.41320
G1 X68.603 Y86.007 E635.43316
G1 X68.603 Y119.224 E637.09032
G1 X68.203 Y119.224 E637.11028
G1 X68.203 Y86.138 E638.76092
G1 X67.803 Y86.138 E638.78088
G1 X67.803 Y119.224 E640.43152
G1 X67.403 Y119.224 E640.45148
G1 X67.403 Y86.269 E642.09564
G1 X67.003 Y86.269 E642.11560
G1 X67.003 Y119.224 E643.75976
G1 X66.603 Y119.224 E643.77972
G1 X66.603 Y86.269 E645.42388
G1 X66.203 Y86.399 E645.44488
G1 X66.203 Y119.224 E647.08252
G1 X65.803 Y119.224 E647.10248
G1 X65.803 Y86.399 E648.74012
G1 X65.403 Y86.530 E648.76112
G1 X65.403 Y119.224 E650.39220
G1 X65.003 Y119.224 E650.41216
G1 X65.003 Y86.530 E652.04328
G1 X64.603 Y86.661 E652.06428
G1 X64.603 Y119.224 E653.68884
G1 X64.203 Y119.224 E653.70880
G1 X64.203 Y86.661 E655.33336
G1 X63.803 Y86.792 E655.35436
G1 X63.803 Y119.224 E656.97240
G1 X63.403 Y119.224 E656.99236
G1 X63.403 Y86.792 E658.61040
G1 X63.003 Y86.923 E658.63140
G1 X63.003 Y119.224 E660.24292
G1 X62.603 Y119.224 E660.26288
G1 X62.603 Y86.923 E661.87440
G1 X62.203 Y86.923 E661.89436
G1 X62.203 Y119.224 E663.50584
G1 X61.803 Y119.224 E663.52580
G1 X61.803 Y87.053 E665.13080
G1 X61.403 Y87.053 E665.15076
G1 X61.403 Y119.224 E666.75572
G1 X61.003 Y119.224 E666.77568
G1 X61.003 Y87.184 E668.37416
G1 X60.603 Y87.184 E668.39412
G1 X60.603 Y119.224 E669.99256
G1 X60.203 Y119.224 E670.01252
G1 X60.203 Y87.315 E671.60440
G1 X59.803 Y87.315 E671.62440
G1 X59.803 Y119.224 E673.21632
G1 X59.403 Y119.224 E673.23624
G1 X59.403 Y87.446 E674.82168
G1 X59.003 Y87.446 E674.84168
G1 X59.003 Y119.224 E676.42712
G1 X58.603 Y119.224 E676.44712
G1 X58.603 Y87.576 E678.02600
G1 X58.203 Y87.576 E678.04592
G1 X58.203 Y119.224 E679.62488
G1 X57.803 Y119.224 E679.64480
G1 X57.803 Y87.576 E681.22376
G1 X57.403 Y87.707 E681.24472
G1 X57.403 Y119.224 E682.81712
G1 X57.003 Y119.224 E682.83712
G1 X57.003 Y87.707 E684.40952
G1 X56.603 Y87.838 E684.43048
G1 X56.603 Y119.224 E685.99632
G1 X56.203 Y119.224 E686.01632
G1 X56.203 Y87.838 E687.58216
G1 X55.803 Y87.969 E687.60312
G1 X55.803 Y119.224 E689.16248
G1 X55.403 Y119.224 E689.18240
G1 X55.403 Y87.969 E690.74176
G1 X55.003 Y88.100 E690.76272
G1 X55.003 Y119.224 E692.31552
G1 X54.603 Y119.224 E692.33552
G1 X54.603 Y88.100 E693.88832
G1 X54.203 Y88.230 E693.90928
G1 X54.203 Y119.224 E695.45560
G1 X53.803 Y119.224 E695.47552
G1 X53.803 Y88.230 E697.02176
G1 X53.403 Y88.361 E697.04280
G1 X53.403 Y119.224 E698.58248
G1 X53.003 Y119.224 E698.60248
G1 X53.003 Y88.361 E700.14224
G1 X52.603 Y88.361 E700.16216
G1 X52.603 Y119.224 E701.70192
G1 X52.203 Y119.224 E701.72184
G1 X52.203 Y88.492 E703.25504
G1 X51.803 Y88.492 E703.27504
G1 X51.803 Y119.224 E704.80824
G1 X51.403 Y119.224 E704.82816
G1 X51.403 Y88.623 E706.35488
G1 X51.003 Y88.623 E706.37480
G1 X51.003 Y119.224 E707.90152
G1 X50.603 Y119.224 E707.92144
G1 X50.603 Y88.753 E709.44168
G1 X50.203 Y88.753 E709.46160
G1 X50.203 Y119.224 E710.98184
G1 X49.803 Y119.224 E711.00176
G1 X49.803 Y88.884 E712.51544
G1 X49.403 Y88.884 E712.53544
G1 X49.403 Y119.224 E714.04904
G1 X49.003 Y119.224 E714.06904
G1 X49.003 Y88.884 E715.58272
G1 X48.603 Y89.015 E715.60368
G1 X48.603 Y119.224 E717.11080
G1 X48.203 Y119.224 E717.13080
G1 X48.203 Y89.015 E718.63792
G1 X47.803 Y89.146 E718.65896
G1 X47.803 Y119.224 E720.15952
G1 X47.403 Y119.224 E720.17952
G1 X47.403 Y89.146 E721.68008
G1 X47.003 Y89.276 E721.70112
G1 X47.003 Y119.224 E723.19520
G1 X46.603 Y119.224 E723.21512
G1 X46.603 Y89.276 E724.70920
G1 X46.203 Y89.407 E724.73024
G1 X46.203 Y119.224 E726.21776
G1 X45.803 Y119.224 E726.23776
G1 X45.803 Y89.407 E727.72528
G1 X45.403 Y89.538 E727.74624
G1 X45.403 Y119.224 E729.22728
G1 X45.003 Y119.224 E729.24728
G1 X45.003 Y89.538 E730.72824
G1 X44.603 Y89.669 E730.74928
G1 X44.603 Y119.224 E732.22376
G1 X44.203 Y119.224 E732.24368
G1 X44.203 Y89.669 E733.71824
G1 X43.803 Y89.669 E733.73816
G1 X43.803 Y119.224 E735.21264
G1 X43.403 Y119.224 E735.23264
G1 X43.403 Y89.800 E736.70056
G1 X43.003 Y89.800 E736.72056
G1 X43.003 Y119.224 E738.18848
G1 X42.603 Y119.224 E738.20840
G1 X42.603 Y89.930 E739.66992
G1 X42.203 Y89.930 E739.68992
G1 X42.203 Y119.224 E741.15136
G1 X41.803 Y119.224 E741.17136
G1 X41.803 Y90.061 E742.62632
G1 X41.403 Y90.061 E742.64624
G1 X41.403 Y119.224 E744.10120
G1 X41.003 Y119.224 E744.12112
G1 X41.003 Y90.192 E745.56960
G1 X40.603 Y90.192 E745.58952
G1 X40.603 Y119.224 E747.03800
G1 X40.203 Y119.224 E747.05792
G1 X40.203 Y90.323 E748.49984
G1 X39.803 Y90.323 E748.51976
G1 X39.803 Y119.224 E749.96168
G1 X39.403 Y119.224 E749.98160
G1 X39.403 Y90.453 E751.41696
G1 X39.003 Y90.453 E751.43696
G1 X39.003 Y119.224 E752.87232
G1 X38.603 Y119.224 E752.89224
G1 X38.603 Y90.453 E754.32760
G1 X38.203 Y90.584 E754.34864
G1 X38.203 Y119.224 E755.77744
G1 X37.803 Y119.224 E755.79744
G1 X37.803 Y90.584 E757.22624
G1 X37.403 Y90.715 E757.24728
G1 X37.403 Y119.224 E758.66952
G1 X37.003 Y119.224 E758.68952
G1 X37.003 Y90.715 E760.11184
G1 X36.603 Y90.846 E760.13280
G1 X36.603 Y119.224 E761.54856
G1 X36.203 Y119.224 E761.56856
G1 X36.203 Y90.846 E762.98432
G1 X35.803 Y90.977 E763.00528
G1 X35.803 Y119.224 E764.41456
G1 X35.403 Y119.224 E764.43448
G1 X35.403 Y90.977 E765.84376
G1 X35.003 Y90.977 E765.86368
G1 X35.003 Y119.224 E767.27296
G1 X34.603 Y119.224 E767.29288
G1 X34.603 Y91.107 E768.69560
G1 X34.203 Y91.238 E768.71664
G1 X34.203 Y119.093 E770.10632
G1 X33.803 Y118.962 E770.12728
G1 X33.803 Y91.369 E771.50400
G1 X33.403 Y91.630 E771.52784
G1 X33.403 Y118.701 E772.87832
G1 X33.003 Y118.308 E772.90632
G1 X33.003 Y91.892 E774.22424
G1 X32.603 Y92.284 E774.25216
G1 X32.603 Y117.916 E775.53096
G1 X32.203 Y117.524 E775.55888
G1 X32.203 Y92.677 E776.79856
G1 X31.803 Y93.069 E776.82648
G1 X31.803 Y117.131 E778.02696
G1 X31.403 Y116.739 E778.05496
G1 X31.403 Y93.461 E779.21624
G1 X31.003 Y93.854 E779.24424
G1 X31.003 Y116.347 E780.36640
G1 X30.603 Y115.954 E780.39432
G1 X30.603 Y94.246 E781.47744
G1 X30.203 Y94.769 E781.51024
G1 X30.203 Y115.562 E782.54760
G1 X29.803 Y114.778 E782.59152
G1 X29.803 Y95.423 E783.55712



; ------------------------------------
; Raft Layer #3
; ------------------------------------
M106 S255 ;set fan speed
G92 E0 ;reset extr
G0 F600 Z1.200
;segType:Raft
G0 F3000 E-1.00000
G0 F600 Z3.200
G0 X34.927 Y90.996 F7200
G0 F600 Z1.200
G0 F3000 E0.00000
G1 X224.811 Y90.996 E9.47338 F2400
G0 X226.119 Y91.396 F7200
G1 X33.619 Y91.396 E19.07724 F2400
G1 X32.965 Y91.796 E19.11548
G1 X226.773 Y91.796 E28.78459
G1 X227.165 Y92.196 E28.81254
G1 X32.573 Y92.196 E38.52080
G1 X32.181 Y92.596 E38.54875
G1 X227.558 Y92.596 E48.29615
G1 X227.950 Y92.996 E48.32411
G1 X31.788 Y92.996 E58.11065
G1 X31.265 Y93.396 E58.14350
G1 X228.473 Y93.396 E67.98224
G1 X228.865 Y93.796 E68.01020
G1 X30.873 Y93.796 E77.88808
G1 X30.481 Y94.196 E77.91603
G1 X229.258 Y94.196 E87.83306
G1 X229.519 Y94.596 E87.85690
G1 X30.219 Y94.596 E97.80003
G1 X29.958 Y94.996 E97.82388
G1 X229.781 Y94.996 E107.79311
G1 X230.042 Y95.396 E107.81695
G1 X29.696 Y95.396 E117.81227
G1 X29.696 Y95.796 E117.83223
G1 X230.042 Y95.796 E127.82755
G1 X230.042 Y96.196 E127.84751
G1 X29.696 Y96.196 E137.84283
G1 X29.696 Y96.596 E137.86279
G1 X230.042 Y96.596 E147.85812
G1 X230.042 Y96.996 E147.87808
G1 X29.696 Y96.996 E157.87341
G1 X29.696 Y97.396 E157.89337
G1 X230.042 Y97.396 E167.88870
G1 X230.042 Y97.796 E167.90866
G1 X29.696 Y97.796 E177.90400
G1 X29.696 Y98.196 E177.92396
G1 X230.042 Y98.196 E187.91928
G1 X230.042 Y98.596 E187.93924
G1 X29.696 Y98.596 E197.93458
G1 X29.696 Y98.996 E197.95452
G1 X230.042 Y98.996 E207.94986
G1 X230.042 Y99.396 E207.96982
G1 X29.696 Y99.396 E217.96514
G1 X29.696 Y99.796 E217.98510
G1 X230.042 Y99.796 E227.98044
G1 X230.042 Y100.196 E228.00040
G1 X29.696 Y100.196 E237.99572
G1 X29.696 Y100.596 E238.01568
G1 X230.042 Y100.596 E248.01102
G1 X230.042 Y100.996 E248.03098
G1 X29.696 Y100.996 E258.02630
G1 X29.696 Y101.396 E258.04626
G1 X230.042 Y101.396 E268.04160
G1 X230.042 Y101.796 E268.06156
G1 X29.696 Y101.796 E278.05688
G1 X29.696 Y102.196 E278.07684
G1 X230.042 Y102.196 E288.07218
G1 X230.042 Y102.596 E288.09214
G1 X29.696 Y102.596 E298.08746
G1 X29.696 Y102.996 E298.10742
G1 X230.042 Y102.996 E308.10276
G1 X230.042 Y103.396 E308.12272
G1 X29.696 Y103.396 E318.11804
G1 X29.696 Y103.796 E318.13800
G1 X230.042 Y103.796 E328.13334
G0 X222.196 Y90.596 F7200
G1 X37.542 Y90.596 E337.34572 F2400
G0 X40.289 Y90.196 F7200
G1 X219.581 Y90.196 E346.29064 F2400
G0 X216.965 Y89.796 F7200
G1 X42.904 Y89.796 E354.97456 F2400
G0 X45.520 Y89.396 F7200
G1 X214.350 Y89.396 E363.39752 F2400
G0 X211.734 Y88.996 F7200
G1 X48.135 Y88.996 E371.55952 F2400
G0 X50.751 Y88.596 F7200
G1 X209.119 Y88.596 E379.46052 F2400
G0 X206.372 Y88.196 F7200
G1 X53.366 Y88.196 E387.09404 F2400
G0 X55.982 Y87.796 F7200
G1 X203.757 Y87.796 E394.46656 F2400
G0 X201.141 Y87.396 F7200
G1 X58.597 Y87.396 E401.57812 F2400
G0 X61.213 Y86.996 F7200
G1 X198.526 Y86.996 E408.42872 F2400
G0 X195.910 Y86.596 F7200
G1 X63.828 Y86.596 E415.01832 F2400
G0 X67.359 Y86.196 F7200
G1 X192.379 Y86.196 E421.25560 F2400
G0 X189.764 Y85.796 F7200
G1 X69.975 Y85.796 E427.23192 F2400
G0 X72.590 Y85.396 F7200
G1 X187.148 Y85.396 E432.94728 F2400
G0 X184.533 Y84.996 F7200
G1 X75.206 Y84.996 E438.40164 F2400
G0 X77.821 Y84.596 F7200
G1 X181.917 Y84.596 E443.59504 F2400
G0 X179.302 Y84.196 F7200
G1 X80.436 Y84.196 E448.52748 F2400
G0 X83.183 Y83.796 F7200
G1 X176.686 Y83.796 E453.19240 F2400
G0 X174.071 Y83.396 F7200
G1 X85.798 Y83.396 E457.59632 F2400
G0 X88.414 Y82.996 F7200
G1 X171.456 Y82.996 E461.73928 F2400
G0 X168.840 Y82.596 F7200
G1 X91.029 Y82.596 E465.62128 F2400
G0 X93.645 Y82.196 F7200
G1 X166.225 Y82.196 E469.24232 F2400
G0 X163.478 Y81.796 F7200
G1 X96.260 Y81.796 E472.59584 F2400
G0 X98.876 Y81.396 F7200
G1 X160.863 Y81.396 E475.68840 F2400
G0 X158.247 Y80.996 F7200
G1 X101.491 Y80.996 E478.51996 F2400
G0 X109.468 Y104.196 F7200
G1 X29.696 Y104.196 E482.49980 F2400
G1 X29.696 Y104.596 E482.51976
G1 X109.468 Y104.596 E486.49964
G1 X109.468 Y104.996 E486.51960
G1 X29.696 Y104.996 E490.49944
G1 X29.696 Y105.396 E490.51940
G1 X109.468 Y105.396 E494.49928
G1 X109.468 Y105.796 E494.51924
G1 X29.696 Y105.796 E498.49908
G1 X29.696 Y106.196 E498.51904
G1 X109.468 Y106.196 E502.49892
G1 X109.468 Y106.596 E502.51884
G1 X29.696 Y106.596 E506.49872
G1 X29.696 Y106.996 E506.51868
G1 X109.468 Y106.996 E510.49852
G1 X109.468 Y107.396 E510.51848
G1 X29.696 Y107.396 E514.49836
G1 X29.696 Y107.796 E514.51832
G1 X109.468 Y107.796 E518.49816
G1 X109.468 Y108.196 E518.51812
G1 X29.696 Y108.196 E522.49800
G1 X29.696 Y108.596 E522.51796
G1 X109.468 Y108.596 E526.49780
G1 X109.468 Y108.996 E526.51776
G1 X29.696 Y108.996 E530.49760
G1 X29.696 Y109.396 E530.51756
G1 X109.468 Y109.396 E534.49744
G1 X109.468 Y109.796 E534.51740
G1 X29.696 Y109.796 E538.49724
G1 X29.696 Y110.196 E538.51720
G1 X109.468 Y110.196 E542.49708
G1 X109.468 Y110.596 E542.51704
G1 X29.696 Y110.596 E546.49688
G1 X29.696 Y110.996 E546.51684
G1 X109.468 Y110.996 E550.49672
G1 X109.468 Y111.396 E550.51668
G1 X29.696 Y111.396 E554.49652
G1 X29.696 Y111.796 E554.51648
G1 X109.468 Y111.796 E558.49632
G1 X109.468 Y112.196 E558.51628
G1 X29.696 Y112.196 E562.49616
G1 X29.696 Y112.596 E562.51612
G1 X109.468 Y112.596 E566.49596
G1 X109.468 Y112.996 E566.51592
G1 X29.696 Y112.996 E570.49580
G1 X29.696 Y113.396 E570.51576
G1 X109.468 Y113.396 E574.49560
G1 X109.468 Y113.796 E574.51556
G1 X29.696 Y113.796 E578.49544
G1 X29.696 Y114.196 E578.51540
G1 X109.468 Y114.196 E582.49524
G1 X109.338 Y114.596 E582.51624
G1 X29.696 Y114.596 E586.48956
G1 X29.827 Y114.996 E586.51056
G1 X109.207 Y114.996 E590.47084
G1 X108.945 Y115.396 E590.49468
G1 X30.088 Y115.396 E594.42888
G1 X30.481 Y115.796 E594.45684
G1 X108.684 Y115.796 E598.35840
G1 X108.291 Y116.196 E598.38636
G1 X30.873 Y116.196 E602.24876
G1 X31.265 Y116.596 E602.27672
G1 X107.899 Y116.596 E606.10004
G1 X107.507 Y116.996 E606.12800
G1 X31.658 Y116.996 E609.91212
G1 X32.050 Y117.396 E609.94008
G1 X107.114 Y117.396 E613.68504
G1 X106.722 Y117.796 E613.71300
G1 X32.442 Y117.796 E617.41884
G1 X32.835 Y118.196 E617.44676
G1 X106.330 Y118.196 E621.11348
G1 X105.938 Y118.596 E621.14140
G1 X33.227 Y118.596 E624.76900
G1 X33.881 Y118.996 E624.80724
G1 X105.153 Y118.996 E628.36304
G0 X150.270 Y104.196 F7200
G1 X230.042 Y104.196 E632.34288 F2400
G1 X230.042 Y104.596 E632.36284
G1 X150.270 Y104.596 E636.34272
G1 X150.270 Y104.996 E636.36268
G1 X230.042 Y104.996 E640.34252
G1 X230.042 Y105.396 E640.36248
G1 X150.270 Y105.396 E644.34236
G1 X150.270 Y105.796 E644.36232
G1 X230.042 Y105.796 E648.34216
G1 X230.042 Y106.196 E648.36212
G1 X150.270 Y106.196 E652.34196
G1 X150.270 Y106.596 E652.36192
G1 X230.042 Y106.596 E656.34180
G1 X230.042 Y106.996 E656.36176
G1 X150.270 Y106.996 E660.34160
G1 X150.270 Y107.396 E660.36156
G1 X230.042 Y107.396 E664.34144
G1 X230.042 Y107.796 E664.36140
G1 X150.270 Y107.796 E668.34124
G1 X150.270 Y108.196 E668.36120
G1 X230.042 Y108.196 E672.34104
G1 X230.042 Y108.596 E672.36104
G1 X150.270 Y108.596 E676.34088
G1 X150.270 Y108.996 E676.36080
G1 X230.042 Y108.996 E680.34072
G1 X230.042 Y109.396 E680.36064
G1 X150.270 Y109.396 E684.34048
G1 X150.270 Y109.796 E684.36048
G1 X230.042 Y109.796 E688.34032
G1 X230.042 Y110.196 E688.36032
G1 X150.270 Y110.196 E692.34016
G1 X150.270 Y110.596 E692.36008
G1 X230.042 Y110.596 E696.34000
G1 X230.042 Y110.996 E696.35992
G1 X150.270 Y110.996 E700.33976
G1 X150.270 Y111.396 E700.35976
G1 X230.042 Y111.396 E704.33960
G1 X230.042 Y111.796 E704.35952
G1 X150.270 Y111.796 E708.33944
G1 X150.270 Y112.196 E708.35936
G1 X230.042 Y112.196 E712.33920
G1 X230.042 Y112.596 E712.35920
G1 X150.270 Y112.596 E716.33904
G1 X150.270 Y112.996 E716.35904
G1 X230.042 Y112.996 E720.33888
G1 X230.042 Y113.396 E720.35880
G1 X150.270 Y113.396 E724.33872
G1 X150.270 Y113.796 E724.35864
G1 X230.042 Y113.796 E728.33848
G1 X230.042 Y114.196 E728.35848
G1 X150.270 Y114.196 E732.33832
G1 X150.401 Y114.596 E732.35928
G1 X230.042 Y114.596 E736.33264
G1 X229.912 Y114.996 E736.35360
G1 X150.532 Y114.996 E740.31392
G1 X150.793 Y115.396 E740.33776
G1 X229.650 Y115.396 E744.27200
G1 X229.258 Y115.796 E744.29992
G1 X151.055 Y115.796 E748.20144
G1 X151.447 Y116.196 E748.22944
G1 X228.865 Y116.196 E752.09184
G1 X228.473 Y116.596 E752.11984
G1 X151.839 Y116.596 E755.94312
G1 X152.232 Y116.996 E755.97104
G1 X228.081 Y116.996 E759.75520
G1 X227.689 Y117.396 E759.78312
G1 X152.624 Y117.396 E763.52816
G1 X153.016 Y117.796 E763.55608
G1 X227.296 Y117.796 E767.26192
G1 X226.904 Y118.196 E767.28984
G1 X153.409 Y118.196 E770.95656
G1 X153.801 Y118.596 E770.98448
G1 X226.512 Y118.596 E774.61208
G1 X225.858 Y118.996 E774.65032
G1 X154.586 Y118.996 E778.20608



; ------------------------------------
; Raft Layer #4
; ------------------------------------
G92 E0 ;reset extr
G0 F600 Z1.400
;segType:Raft
G0 F3000 E-1.00000
G0 F600 Z3.400
G0 X109.403 Y114.385 F7200
G0 F600 Z1.400
G0 F3000 E0.00000
G1 X109.403 Y81.038 E1.66371 F2400
G1 X109.803 Y81.038 E1.68367
G1 X109.803 Y103.923 E2.82543
G1 X110.203 Y103.923 E2.84539
G1 X110.203 Y81.038 E3.98715
G1 X110.603 Y81.038 E4.00711
G1 X110.603 Y103.923 E5.14887
G1 X111.003 Y103.923 E5.16883
G1 X111.003 Y81.038 E6.31059
G1 X111.403 Y81.038 E6.33055
G1 X111.403 Y103.923 E7.47231
G1 X111.803 Y103.923 E7.49227
G1 X111.803 Y81.038 E8.63403
G1 X112.203 Y81.038 E8.65399
G1 X112.203 Y103.923 E9.79575
G1 X112.603 Y103.923 E9.81571
G1 X112.603 Y81.038 E10.95747
G1 X113.003 Y81.038 E10.97743
G1 X113.003 Y103.923 E12.11919
G1 X113.403 Y103.923 E12.13915
G1 X113.403 Y81.038 E13.28091
G1 X113.803 Y81.038 E13.30087
G1 X113.803 Y103.923 E14.44263
G1 X114.203 Y103.923 E14.46259
G1 X114.203 Y81.038 E15.60435
G1 X114.603 Y81.038 E15.62431
G1 X114.603 Y103.923 E16.76607
G1 X115.003 Y103.923 E16.78603
G1 X115.003 Y81.038 E17.92779
G1 X115.403 Y81.038 E17.94775
G1 X115.403 Y103.923 E19.08951
G1 X115.803 Y103.923 E19.10947
G1 X115.803 Y81.038 E20.25123
G1 X116.203 Y81.038 E20.27119
G1 X116.203 Y103.923 E21.41296
G1 X116.603 Y103.923 E21.43291
G1 X116.603 Y81.038 E22.57468
G1 X117.003 Y81.038 E22.59463
G1 X117.003 Y103.923 E23.73640
G1 X117.403 Y103.923 E23.75635
G1 X117.403 Y81.038 E24.89812
G1 X117.803 Y81.038 E24.91807
G1 X117.803 Y103.923 E26.05984
G1 X118.203 Y103.923 E26.07979
G1 X118.203 Y81.038 E27.22156
G1 X118.603 Y81.038 E27.24151
G1 X118.603 Y103.923 E28.38328
G1 X119.003 Y103.923 E28.40323
G1 X119.003 Y81.038 E29.54500
G1 X119.403 Y81.038 E29.56495
G1 X119.403 Y103.923 E30.70672
G1 X119.803 Y103.923 E30.72667
G1 X119.803 Y81.038 E31.86844
G1 X120.203 Y81.038 E31.88839
G1 X120.203 Y103.923 E33.03016
G1 X120.603 Y103.923 E33.05011
G1 X120.603 Y81.038 E34.19188
G1 X121.003 Y81.038 E34.21184
G1 X121.003 Y103.923 E35.35360
G1 X121.403 Y103.923 E35.37356
G1 X121.403 Y81.038 E36.51532
G1 X121.803 Y81.038 E36.53528
G1 X121.803 Y103.923 E37.67704
G1 X122.203 Y103.923 E37.69700
G1 X122.203 Y81.038 E38.83876
G1 X122.603 Y81.038 E38.85872
G1 X122.603 Y103.923 E40.00048
G1 X123.003 Y103.923 E40.02044
G1 X123.003 Y81.038 E41.16220
G1 X123.403 Y81.038 E41.18216
G1 X123.403 Y103.923 E42.32392
G1 X123.803 Y103.923 E42.34388
G1 X123.803 Y81.038 E43.48564
G1 X124.203 Y81.038 E43.50560
G1 X124.203 Y103.923 E44.64736
G1 X124.603 Y103.923 E44.66732
G1 X124.603 Y81.038 E45.80908
G1 X125.003 Y81.038 E45.82904
G1 X125.003 Y103.923 E46.97080
G1 X125.403 Y103.923 E46.99076
G1 X125.403 Y81.038 E48.13253
G1 X125.803 Y81.038 E48.15248
G1 X125.803 Y103.923 E49.29425
G1 X126.203 Y103.923 E49.31420
G1 X126.203 Y81.038 E50.45597
G1 X126.603 Y81.038 E50.47592
G1 X126.603 Y103.923 E51.61769
G1 X127.003 Y103.923 E51.63764
G1 X127.003 Y81.038 E52.77941
G1 X127.403 Y81.038 E52.79936
G1 X127.403 Y103.923 E53.94113
G1 X127.803 Y103.923 E53.96108
G1 X127.803 Y81.038 E55.10285
G1 X128.203 Y81.038 E55.12280
G1 X128.203 Y103.923 E56.26457
G1 X128.603 Y103.923 E56.28452
G1 X128.603 Y81.038 E57.42629
G1 X129.003 Y81.038 E57.44624
G1 X129.003 Y103.923 E58.58801
G1 X129.403 Y103.923 E58.60796
G1 X129.403 Y81.038 E59.74973
G1 X129.803 Y81.038 E59.76968
G1 X129.803 Y103.923 E60.91145
G1 X130.203 Y103.923 E60.93140
G1 X130.203 Y81.038 E62.07317
G1 X130.603 Y81.038 E62.09312
G1 X130.603 Y103.923 E63.23489
G1 X131.003 Y103.923 E63.25484
G1 X131.003 Y81.038 E64.39661
G1 X131.403 Y81.038 E64.41657
G1 X131.403 Y103.923 E65.55833
G1 X131.803 Y103.923 E65.57829
G1 X131.803 Y81.038 E66.72005
G1 X132.203 Y81.038 E66.74001
G1 X132.203 Y103.923 E67.88177
G1 X132.603 Y103.923 E67.90173
G1 X132.603 Y81.038 E69.04349
G1 X133.003 Y81.038 E69.06345
G1 X133.003 Y103.923 E70.20521
G1 X133.403 Y103.923 E70.22517
G1 X133.403 Y81.038 E71.36693
G1 X133.803 Y81.038 E71.38689
G1 X133.803 Y103.923 E72.52865
G1 X134.203 Y103.923 E72.54861
G1 X134.203 Y81.038 E73.69037
G1 X134.603 Y81.038 E73.71033
G1 X134.603 Y103.923 E74.85209
G1 X135.003 Y103.923 E74.87205
G1 X135.003 Y81.038 E76.01381
G1 X135.403 Y81.038 E76.03377
G1 X135.403 Y103.923 E77.17553
G1 X135.803 Y103.923 E77.19549
G1 X135.803 Y81.038 E78.33725
G1 X136.203 Y81.038 E78.35721
G1 X136.203 Y103.923 E79.49897
G1 X136.603 Y103.923 E79.51893
G1 X136.603 Y81.038 E80.66069
G1 X137.003 Y81.038 E80.68065
G1 X137.003 Y103.923 E81.82241
G1 X137.403 Y103.923 E81.84237
G1 X137.403 Y81.038 E82.98413
G1 X137.803 Y81.038 E83.00409
G1 X137.803 Y103.923 E84.14585
G1 X138.203 Y103.923 E84.16581
G1 X138.203 Y81.038 E85.30757
G1 X138.603 Y81.038 E85.32753
G1 X138.603 Y103.923 E86.46929
G1 X139.003 Y103.923 E86.48925
G1 X139.003 Y81.038 E87.63101
G1 X139.403 Y81.038 E87.65097
G1 X139.403 Y103.923 E88.79273
G1 X139.803 Y103.923 E88.81269
G1 X139.803 Y81.038 E89.95445
G1 X140.203 Y81.038 E89.97441
G1 X140.203 Y103.923 E91.11617
G1 X140.603 Y103.923 E91.13613
G1 X140.603 Y81.038 E92.27789
G1 X141.003 Y81.038 E92.29785
G1 X141.003 Y103.923 E93.43961
G1 X141.403 Y103.923 E93.45957
G1 X141.403 Y81.038 E94.60133
G1 X141.803 Y81.038 E94.62129
G1 X141.803 Y103.923 E95.76305
G1 X142.203 Y103.923 E95.78301
G1 X142.203 Y81.038 E96.92477
G1 X142.603 Y81.038 E96.94473
G1 X142.603 Y103.923 E98.08649
G1 X143.003 Y103.923 E98.10645
G1 X143.003 Y81.038 E99.24821
G1 X143.403 Y81.038 E99.26817
G1 X143.403 Y103.923 E100.40993
G1 X143.803 Y103.923 E100.42989
G1 X143.803 Y81.038 E101.57166
G1 X144.203 Y81.038 E101.59161
G1 X144.203 Y103.923 E102.73338
G1 X144.603 Y103.923 E102.75333
G1 X144.603 Y81.038 E103.89510
G1 X145.003 Y81.038 E103.91505
G1 X145.003 Y103.923 E105.05682
G1 X145.403 Y103.923 E105.07677
G1 X145.403 Y81.038 E106.21854
G1 X145.803 Y81.038 E106.23849
G1 X145.803 Y103.923 E107.38026
G1 X146.203 Y103.923 E107.40022
G1 X146.203 Y81.038 E108.54198
G1 X146.603 Y81.038 E108.56194
G1 X146.603 Y103.923 E109.70370
G1 X147.003 Y103.923 E109.72366
G1 X147.003 Y81.038 E110.86542
G1 X147.403 Y81.038 E110.88538
G1 X147.403 Y103.923 E112.02714
G1 X147.803 Y103.923 E112.04710
G1 X147.803 Y81.038 E113.18886
G1 X148.203 Y81.038 E113.20882
G1 X148.203 Y103.923 E114.35058
G1 X148.603 Y103.923 E114.37054
G1 X148.603 Y81.038 E115.51230
G1 X149.003 Y81.038 E115.53226
G1 X149.003 Y103.923 E116.67402
G1 X149.403 Y103.923 E116.69398
G1 X149.403 Y81.038 E117.83574
G1 X149.803 Y81.038 E117.85570
G1 X149.803 Y103.923 E118.99746
G1 X150.203 Y103.923 E119.01742
G1 X150.203 Y81.038 E120.15918
G1 X150.603 Y81.038 E120.17914
G1 X150.603 Y115.170 E121.88200
G1 X151.003 Y115.824 E121.92023
G1 X151.003 Y81.038 E123.65572
G1 X151.403 Y81.038 E123.67567
G1 X151.403 Y116.216 E125.43073
G1 X151.803 Y116.608 E125.45868
G1 X151.803 Y81.038 E127.23331
G1 X152.203 Y81.038 E127.25327
G1 X152.203 Y117.001 E129.04747
G1 X152.603 Y117.393 E129.07542
G1 X152.603 Y81.038 E130.88919
G1 X153.003 Y81.038 E130.90915
G1 X153.003 Y117.785 E132.74249
G1 X153.403 Y118.178 E132.77045
G1 X153.403 Y81.038 E134.62337
G1 X153.803 Y81.038 E134.64333
G1 X153.803 Y118.570 E136.51582
G1 X154.203 Y118.832 E136.53967
G1 X154.203 Y81.038 E138.42522
G1 X154.603 Y81.038 E138.44518
G1 X154.603 Y118.962 E140.33723
G1 X155.003 Y119.093 E140.35823
G1 X155.003 Y81.038 E142.25682
G1 X155.403 Y81.038 E142.27678
G1 X155.403 Y119.224 E144.18190
G1 X155.803 Y119.224 E144.20186
G1 X155.803 Y81.038 E146.10698
G1 X156.203 Y81.038 E146.12694
G1 X156.203 Y119.224 E148.03206
G1 X156.603 Y119.224 E148.05202
G1 X156.603 Y81.038 E149.95714
G1 X157.003 Y81.038 E149.97710
G1 X157.003 Y119.224 E151.88222
G1 X157.403 Y119.224 E151.90218
G1 X157.403 Y81.038 E153.80730
G1 X157.803 Y81.038 E153.82726
G1 X157.803 Y119.224 E155.73238
G1 X158.203 Y119.224 E155.75233
G1 X158.203 Y81.038 E157.65746
G1 X158.603 Y81.168 E157.67845
G1 X158.603 Y119.224 E159.57704
G1 X159.003 Y119.224 E159.59700
G1 X159.003 Y81.168 E161.49559
G1 X159.403 Y81.299 E161.51659
G1 X159.403 Y119.224 E163.40865
G1 X159.803 Y119.224 E163.42860
G1 X159.803 Y81.299 E165.32066
G1 X160.203 Y81.430 E165.34166
G1 X160.203 Y119.224 E167.22720
G1 X160.603 Y119.224 E167.24716
G1 X160.603 Y81.430 E169.13270
G1 X161.003 Y81.561 E169.15370
G1 X161.003 Y119.224 E171.03272
G1 X161.403 Y119.224 E171.05268
G1 X161.403 Y81.561 E172.93168
G1 X161.803 Y81.561 E172.95164
G1 X161.803 Y119.224 E174.83066
G1 X162.203 Y119.224 E174.85062
G1 X162.203 Y81.692 E176.72312
G1 X162.603 Y81.692 E176.74308
G1 X162.603 Y119.224 E178.61558
G1 X163.003 Y119.224 E178.63552
G1 X163.003 Y81.822 E180.50150
G1 X163.403 Y81.822 E180.52146
G1 X163.403 Y119.224 E182.38742
G1 X163.803 Y119.224 E182.40738
G1 X163.803 Y81.953 E184.26684
G1 X164.203 Y81.953 E184.28678
G1 X164.203 Y119.224 E186.14624
G1 X164.603 Y119.224 E186.16620
G1 X164.603 Y82.084 E188.01912
G1 X165.004 Y82.084 E188.03908
G1 X165.004 Y119.224 E189.89200
G1 X165.403 Y119.224 E189.91196
G1 X165.403 Y82.215 E191.75834
G1 X165.804 Y82.215 E191.77830
G1 X165.804 Y119.224 E193.62470
G1 X166.203 Y119.224 E193.64466
G1 X166.203 Y82.215 E195.49104
G1 X166.604 Y82.345 E195.51204
G1 X166.604 Y119.224 E197.35192
G1 X167.004 Y119.224 E197.37188
G1 X167.004 Y82.345 E199.21174
G1 X167.404 Y82.476 E199.23274
G1 X167.404 Y119.224 E201.06608
G1 X167.804 Y119.224 E201.08604
G1 X167.804 Y82.476 E202.91938
G1 X168.204 Y82.607 E202.94038
G1 X168.204 Y119.224 E204.76722
G1 X168.604 Y119.224 E204.78718
G1 X168.604 Y82.607 E206.61400
G1 X169.004 Y82.738 E206.63500
G1 X169.004 Y119.224 E208.45530
G1 X169.404 Y119.224 E208.47526
G1 X169.404 Y82.738 E210.29554
G1 X169.804 Y82.869 E210.31654
G1 X169.804 Y119.224 E212.13032
G1 X170.204 Y119.224 E212.15026
G1 X170.204 Y82.869 E213.96404
G1 X170.604 Y82.869 E213.98400
G1 X170.604 Y119.224 E215.79776
G1 X171.004 Y119.224 E215.81772
G1 X171.004 Y82.999 E217.62496
G1 X171.404 Y82.999 E217.64492
G1 X171.404 Y119.224 E219.45218
G1 X171.804 Y119.224 E219.47214
G1 X171.804 Y83.130 E221.27286
G1 X172.204 Y83.130 E221.29282
G1 X172.204 Y119.224 E223.09354
G1 X172.604 Y119.224 E223.11350
G1 X172.604 Y83.261 E224.90770
G1 X173.004 Y83.261 E224.92766
G1 X173.004 Y119.224 E226.72186
G1 X173.404 Y119.224 E226.74182
G1 X173.404 Y83.392 E228.52950
G1 X173.804 Y83.392 E228.54946
G1 X173.804 Y119.224 E230.33712
G1 X174.204 Y119.224 E230.35708
G1 X174.204 Y83.522 E232.13824
G1 X174.604 Y83.522 E232.15820
G1 X174.604 Y119.224 E233.93936
G1 X175.004 Y119.224 E233.95932
G1 X175.004 Y83.653 E235.73394
G1 X175.404 Y83.653 E235.75390
G1 X175.404 Y119.224 E237.52854
G1 X175.804 Y119.224 E237.54850
G1 X175.804 Y83.653 E239.32312
G1 X176.204 Y83.784 E239.34412
G1 X176.204 Y119.224 E241.11222
G1 X176.604 Y119.224 E241.13218
G1 X176.604 Y83.784 E242.90026
G1 X177.004 Y83.915 E242.92126
G1 X177.004 Y119.224 E244.68284
G1 X177.404 Y119.224 E244.70280
G1 X177.404 Y83.915 E246.46438
G1 X177.804 Y84.046 E246.48538
G1 X177.804 Y119.224 E248.24044
G1 X178.204 Y119.224 E248.26040
G1 X178.204 Y84.046 E250.01544
G1 X178.604 Y84.176 E250.03644
G1 X178.604 Y119.224 E251.78498
G1 X179.004 Y119.224 E251.80494
G1 X179.004 Y84.176 E253.55346
G1 X179.404 Y84.307 E253.57446
G1 X179.404 Y119.224 E255.31646
G1 X179.804 Y119.224 E255.33642
G1 X179.804 Y84.307 E257.07844
G1 X180.204 Y84.307 E257.09838
G1 X180.204 Y119.224 E258.84040
G1 X180.604 Y119.224 E258.86036
G1 X180.604 Y84.438 E260.59582
G1 X181.004 Y84.438 E260.61578
G1 X181.004 Y119.224 E262.35126
G1 X181.404 Y119.224 E262.37122
G1 X181.404 Y84.569 E264.10016
G1 X181.804 Y84.569 E264.12012
G1 X181.804 Y119.224 E265.84906
G1 X182.204 Y119.224 E265.86902
G1 X182.204 Y84.699 E267.59146
G1 X182.604 Y84.699 E267.61142
G1 X182.604 Y119.224 E269.33386
G1 X183.004 Y119.224 E269.35382
G1 X183.004 Y84.830 E271.06974
G1 X183.404 Y84.830 E271.08970
G1 X183.404 Y119.224 E272.80560
G1 X183.804 Y119.224 E272.82556
G1 X183.804 Y84.961 E274.53494
G1 X184.204 Y84.961 E274.55490
G1 X184.204 Y119.224 E276.26428
G1 X184.604 Y119.224 E276.28424
G1 X184.604 Y85.092 E277.98710
G1 X185.004 Y85.092 E278.00704
G1 X185.004 Y119.224 E279.70990
G1 X185.404 Y119.224 E279.72986
G1 X185.404 Y85.092 E281.43270
G1 X185.804 Y85.222 E281.45370
G1 X185.804 Y119.224 E283.15002
G1 X186.204 Y119.224 E283.16998
G1 X186.204 Y85.222 E284.86630
G1 X186.604 Y85.353 E284.88730
G1 X186.604 Y119.224 E286.57712
G1 X187.004 Y119.224 E286.59708
G1 X187.004 Y85.353 E288.28690
G1 X187.404 Y85.484 E288.30790
G1 X187.404 Y119.224 E289.99118
G1 X187.804 Y119.224 E290.01114
G1 X187.804 Y85.484 E291.69442
G1 X188.204 Y85.615 E291.71542
G1 X188.204 Y119.224 E293.39218
G1 X188.604 Y119.224 E293.41214
G1 X188.604 Y85.615 E295.08890
G1 X189.004 Y85.615 E295.10886
G1 X189.004 Y119.224 E296.78562
G1 X189.404 Y119.224 E296.80558
G1 X189.404 Y85.746 E298.47580
G1 X189.804 Y85.746 E298.49576
G1 X189.804 Y119.224 E300.16598
G1 X190.204 Y119.224 E300.18594
G1 X190.204 Y85.876 E301.84968
G1 X190.604 Y85.876 E301.86962
G1 X190.604 Y119.224 E303.53336
G1 X191.004 Y119.224 E303.55332
G1 X191.004 Y86.007 E305.21052
G1 X191.404 Y86.007 E305.23046
G1 X191.404 Y119.224 E306.88766
G1 X191.804 Y119.224 E306.90762
G1 X191.804 Y86.138 E308.55828
G1 X192.204 Y86.138 E308.57824
G1 X192.204 Y119.224 E310.22892
G1 X192.604 Y119.224 E310.24888
G1 X192.604 Y86.269 E311.89300
G1 X193.004 Y86.269 E311.91296
G1 X193.004 Y119.224 E313.55710
G1 X193.404 Y119.224 E313.57706
G1 X193.404 Y86.399 E315.21466
G1 X193.804 Y86.399 E315.23462
G1 X193.804 Y119.224 E316.87222
G1 X194.204 Y119.224 E316.89218
G1 X194.204 Y86.399 E318.52978
G1 X194.604 Y86.530 E318.55078
G1 X194.604 Y119.224 E320.18188
G1 X195.004 Y119.224 E320.20184
G1 X195.004 Y86.530 E321.83294
G1 X195.404 Y86.661 E321.85394
G1 X195.404 Y119.224 E323.47852
G1 X195.804 Y119.224 E323.49848
G1 X195.804 Y86.661 E325.12304
G1 X196.204 Y86.792 E325.14404
G1 X196.204 Y119.224 E326.76208
G1 X196.604 Y119.224 E326.78204
G1 X196.604 Y86.792 E328.40008
G1 X197.004 Y86.923 E328.42108
G1 X197.004 Y119.224 E330.03260
G1 X197.404 Y119.224 E330.05256
G1 X197.404 Y86.923 E331.66406
G1 X197.804 Y86.923 E331.68402
G1 X197.804 Y119.224 E333.29554
G1 X198.204 Y119.224 E333.31550
G1 X198.204 Y87.053 E334.92048
G1 X198.604 Y87.184 E334.94146
G1 X198.604 Y119.224 E336.53996
G1 X199.004 Y119.224 E336.55992
G1 X199.004 Y87.184 E338.15840
G1 X199.404 Y87.184 E338.17836
G1 X199.404 Y119.224 E339.77684
G1 X199.804 Y119.224 E339.79680
G1 X199.804 Y87.315 E341.38872
G1 X200.204 Y87.315 E341.40868
G1 X200.204 Y119.224 E343.00064
G1 X200.604 Y119.224 E343.02060
G1 X200.604 Y87.446 E344.60600
G1 X201.004 Y87.446 E344.62596
G1 X201.004 Y119.224 E346.21140
G1 X201.404 Y119.224 E346.23136
G1 X201.404 Y87.576 E347.81024
G1 X201.804 Y87.576 E347.83020
G1 X201.804 Y119.224 E349.40908
G1 X202.204 Y119.224 E349.42904
G1 X202.204 Y87.707 E351.00140
G1 X202.604 Y87.707 E351.02136
G1 X202.604 Y119.224 E352.59372
G1 X203.004 Y119.224 E352.61368
G1 X203.004 Y87.707 E354.18604
G1 X203.404 Y87.838 E354.20704
G1 X203.404 Y119.224 E355.77288
G1 X203.804 Y119.224 E355.79284
G1 X203.804 Y87.838 E357.35872
G1 X204.204 Y87.969 E357.37968
G1 X204.204 Y119.224 E358.93904
G1 X204.604 Y119.224 E358.95900
G1 X204.604 Y87.969 E360.51832
G1 X205.004 Y88.100 E360.53932
G1 X205.004 Y119.224 E362.09212
G1 X205.404 Y119.224 E362.11208
G1 X205.404 Y88.100 E363.66484
G1 X205.804 Y88.230 E363.68584
G1 X205.804 Y119.224 E365.23212
G1 X206.204 Y119.224 E365.25208
G1 X206.204 Y88.230 E366.79832
G1 X206.604 Y88.361 E366.81932
G1 X206.604 Y119.224 E368.35912
G1 X207.004 Y119.224 E368.37904
G1 X207.004 Y88.361 E369.91884
G1 X207.404 Y88.492 E369.93980
G1 X207.404 Y119.224 E371.47304
G1 X207.804 Y119.224 E371.49300
G1 X207.804 Y88.492 E373.02624
G1 X208.204 Y88.492 E373.04620
G1 X208.204 Y119.224 E374.57944
G1 X208.604 Y119.224 E374.59940
G1 X208.604 Y88.623 E376.12608
G1 X209.004 Y88.623 E376.14604
G1 X209.004 Y119.224 E377.67276
G1 X209.404 Y119.224 E377.69272
G1 X209.404 Y88.753 E379.21288
G1 X209.804 Y88.753 E379.23284
G1 X209.804 Y119.224 E380.75304
G1 X210.204 Y119.224 E380.77296
G1 X210.204 Y88.884 E382.28664
G1 X210.604 Y88.884 E382.30656
G1 X210.604 Y119.224 E383.82024
G1 X211.004 Y119.224 E383.84016
G1 X211.004 Y89.015 E385.34732
G1 X211.404 Y89.015 E385.36728
G1 X211.404 Y119.224 E386.87444
G1 X211.804 Y119.224 E386.89436
G1 X211.804 Y89.146 E388.39500
G1 X212.204 Y89.146 E388.41496
G1 X212.204 Y119.224 E389.91556
G1 X212.604 Y119.224 E389.93552
G1 X212.604 Y89.276 E391.42960
G1 X213.004 Y89.276 E391.44956
G1 X213.004 Y119.224 E392.94364
G1 X213.404 Y119.224 E392.96360
G1 X213.404 Y89.276 E394.45768
G1 X213.804 Y89.407 E394.47868
G1 X213.804 Y119.224 E395.96620
G1 X214.204 Y119.224 E395.98616
G1 X214.204 Y89.407 E397.47372
G1 X214.604 Y89.538 E397.49472
G1 X214.604 Y119.224 E398.97572
G1 X215.004 Y119.224 E398.99568
G1 X215.004 Y89.538 E400.47672
G1 X215.404 Y89.669 E400.49772
G1 X215.404 Y119.224 E401.97224
G1 X215.804 Y119.224 E401.99220
G1 X215.804 Y89.669 E403.46672
G1 X216.204 Y89.800 E403.48772
G1 X216.204 Y119.224 E404.95568
G1 X216.604 Y119.224 E404.97564
G1 X216.604 Y89.800 E406.44364
G1 X217.004 Y89.800 E406.46360
G1 X217.004 Y119.224 E407.93156
G1 X217.404 Y119.224 E407.95152
G1 X217.404 Y89.930 E409.41300
G1 X217.804 Y89.930 E409.43296
G1 X217.804 Y119.224 E410.89440
G1 X218.204 Y119.224 E410.91436
G1 X218.204 Y90.061 E412.36928
G1 X218.604 Y90.061 E412.38924
G1 X218.604 Y119.224 E413.84416
G1 X219.004 Y119.224 E413.86412
G1 X219.004 Y90.192 E415.31252
G1 X219.404 Y90.192 E415.33248
G1 X219.404 Y119.224 E416.78088
G1 X219.804 Y119.224 E416.80084
G1 X219.804 Y90.323 E418.24272
G1 X220.204 Y90.323 E418.26268
G1 X220.204 Y119.224 E419.70460
G1 X220.604 Y119.224 E419.72456
G1 X220.604 Y90.453 E421.15992
G1 X221.004 Y90.453 E421.17988
G1 X221.004 Y119.224 E422.61524
G1 X221.404 Y119.224 E422.63520
G1 X221.404 Y90.584 E424.06404
G1 X221.804 Y90.584 E424.08400
G1 X221.804 Y119.224 E425.51280
G1 X222.204 Y119.224 E425.53276
G1 X222.204 Y90.584 E426.96160
G1 X222.604 Y90.715 E426.98260
G1 X222.604 Y119.224 E428.40492
G1 X223.004 Y119.224 E428.42488
G1 X223.004 Y90.715 E429.84716
G1 X223.404 Y90.846 E429.86816
G1 X223.404 Y119.224 E431.28396
G1 X223.804 Y119.224 E431.30392
G1 X223.804 Y90.846 E432.71972
G1 X224.204 Y90.977 E432.74072
G1 X224.204 Y119.224 E434.15000
G1 X224.604 Y119.224 E434.16996
G1 X224.604 Y90.977 E435.57924
G1 X225.004 Y91.107 E435.60020
G1 X225.004 Y119.224 E437.00296
G1 X225.404 Y119.224 E437.02292
G1 X225.404 Y91.107 E438.42564
G1 X225.804 Y91.238 E438.44664
G1 X225.804 Y119.093 E439.83632
G1 X226.204 Y118.832 E439.86016
G1 X226.204 Y91.500 E441.22376
G1 X226.604 Y91.761 E441.24760
G1 X226.604 Y118.570 E442.58508
G1 X227.004 Y118.178 E442.61304
G1 X227.004 Y92.023 E443.91792
G1 X227.404 Y92.415 E443.94588
G1 X227.404 Y117.785 E445.21156
G1 X227.804 Y117.393 E445.23952
G1 X227.804 Y92.807 E446.46612
G1 X228.204 Y93.200 E446.49408
G1 X228.204 Y117.001 E447.68152
G1 X228.604 Y116.608 E447.70948
G1 X228.604 Y93.592 E448.85776
G1 X229.004 Y93.984 E448.88572
G1 X229.004 Y116.216 E449.99484
G1 X229.404 Y115.824 E450.02280
G1 X229.404 Y94.377 E451.09280
G1 X229.804 Y94.900 E451.12568
G1 X229.804 Y115.301 E452.14348
G0 X109.003 Y115.693 F7200
G1 X109.003 Y81.038 E453.87240 F2400
G1 X108.603 Y81.038 E453.89236
G1 X108.603 Y116.085 E455.64088
G1 X108.203 Y116.478 E455.66884
G1 X108.203 Y81.038 E457.43696
G1 X107.803 Y81.038 E457.45692
G1 X107.803 Y116.870 E459.24460
G1 X107.403 Y117.262 E459.27256
G1 X107.403 Y81.038 E461.07980
G1 X107.003 Y81.038 E461.09976
G1 X107.003 Y117.655 E462.92656
G1 X106.603 Y118.047 E462.95452
G1 X106.603 Y81.038 E464.80092
G1 X106.203 Y81.038 E464.82088
G1 X106.203 Y118.439 E466.68684
G1 X105.803 Y118.701 E466.71068
G1 X105.803 Y81.038 E468.58972
G1 X105.403 Y81.038 E468.60968
G1 X105.403 Y118.962 E470.50172
G1 X105.003 Y119.093 E470.52272
G1 X105.003 Y81.038 E472.42132
G1 X104.603 Y81.038 E472.44128
G1 X104.603 Y119.224 E474.34640
G1 X104.203 Y119.224 E474.36636
G1 X104.203 Y81.038 E476.27148
G1 X103.803 Y81.038 E476.29144
G1 X103.803 Y119.224 E478.19656
G1 X103.403 Y119.224 E478.21652
G1 X103.403 Y81.038 E480.12164
G1 X103.003 Y81.038 E480.14160
G1 X103.003 Y119.224 E482.04672
G1 X102.603 Y119.224 E482.06668
G1 X102.603 Y81.038 E483.97180
G1 X102.203 Y81.038 E483.99176
G1 X102.203 Y119.224 E485.89688
G1 X101.803 Y119.224 E485.91684
G1 X101.803 Y81.038 E487.82196
G1 X101.403 Y81.168 E487.84296
G1 X101.403 Y119.224 E489.74156
G1 X101.003 Y119.224 E489.76152
G1 X101.003 Y81.168 E491.66008
G1 X100.603 Y81.299 E491.68108
G1 X100.603 Y119.224 E493.57316
G1 X100.203 Y119.224 E493.59312
G1 X100.203 Y81.299 E495.48516
G1 X99.803 Y81.430 E495.50616
G1 X99.803 Y119.224 E497.39168
G1 X99.403 Y119.224 E497.41164
G1 X99.403 Y81.430 E499.29720
G1 X99.003 Y81.430 E499.31712
G1 X99.003 Y119.224 E501.20268
G1 X98.603 Y119.224 E501.22264
G1 X98.603 Y81.561 E503.10164
G1 X98.203 Y81.561 E503.12160
G1 X98.203 Y119.224 E505.00064
G1 X97.803 Y119.224 E505.02060
G1 X97.803 Y81.692 E506.89308
G1 X97.403 Y81.692 E506.91304
G1 X97.403 Y119.224 E508.78556
G1 X97.003 Y119.224 E508.80552
G1 X97.003 Y81.822 E510.67148
G1 X96.603 Y81.822 E510.69144
G1 X96.603 Y119.224 E512.55744
G1 X96.203 Y119.224 E512.57740
G1 X96.203 Y81.953 E514.43684
G1 X95.803 Y81.953 E514.45680
G1 X95.803 Y119.224 E516.31624
G1 X95.403 Y119.224 E516.33620
G1 X95.403 Y82.084 E518.18908
G1 X95.003 Y82.084 E518.20904
G1 X95.003 Y119.224 E520.06196
G1 X94.603 Y119.224 E520.08192
G1 X94.603 Y82.215 E521.92828
G1 X94.203 Y82.215 E521.94824
G1 X94.203 Y119.224 E523.79460
G1 X93.803 Y119.224 E523.81456
G1 X93.803 Y82.215 E525.66096
G1 X93.403 Y82.345 E525.68196
G1 X93.403 Y119.224 E527.52180
G1 X93.003 Y119.224 E527.54176
G1 X93.003 Y82.345 E529.38160
G1 X92.603 Y82.476 E529.40260
G1 X92.603 Y119.224 E531.23596
G1 X92.203 Y119.224 E531.25592
G1 X92.203 Y82.476 E533.08928
G1 X91.803 Y82.607 E533.11028
G1 X91.803 Y119.224 E534.93712
G1 X91.403 Y119.224 E534.95708
G1 X91.403 Y82.607 E536.78392
G1 X91.003 Y82.738 E536.80492
G1 X91.003 Y119.224 E538.62524
G1 X90.603 Y119.224 E538.64520
G1 X90.603 Y82.738 E540.46552
G1 X90.203 Y82.738 E540.48548
G1 X90.203 Y119.224 E542.30580
G1 X89.803 Y119.224 E542.32576
G1 X89.803 Y82.869 E544.13952
G1 X89.403 Y82.869 E544.15948
G1 X89.403 Y119.224 E545.97328
G1 X89.003 Y119.224 E545.99324
G1 X89.003 Y82.999 E547.80048
G1 X88.603 Y82.999 E547.82044
G1 X88.603 Y119.224 E549.62768
G1 X88.203 Y119.224 E549.64764
G1 X88.203 Y83.130 E551.44836
G1 X87.803 Y83.130 E551.46832
G1 X87.803 Y119.224 E553.26904
G1 X87.403 Y119.224 E553.28900
G1 X87.403 Y83.261 E555.08320
G1 X87.003 Y83.261 E555.10316
G1 X87.003 Y119.224 E556.89732
G1 X86.603 Y119.224 E556.91728
G1 X86.603 Y83.392 E558.70496
G1 X86.203 Y83.392 E558.72492
G1 X86.203 Y119.224 E560.51256
G1 X85.803 Y119.224 E560.53252
G1 X85.803 Y83.522 E562.31364
G1 X85.403 Y83.522 E562.33360
G1 X85.403 Y119.224 E564.11476
G1 X85.003 Y119.224 E564.13472
G1 X85.003 Y83.522 E565.91584
G1 X84.603 Y83.653 E565.93684
G1 X84.603 Y119.224 E567.71144
G1 X84.203 Y119.224 E567.73140
G1 X84.203 Y83.653 E569.50600
G1 X83.803 Y83.784 E569.52696
G1 X83.803 Y119.224 E571.29512
G1 X83.403 Y119.224 E571.31508
G1 X83.403 Y83.784 E573.08320
G1 X83.003 Y83.915 E573.10420
G1 X83.003 Y119.224 E574.86580
G1 X82.603 Y119.224 E574.88576
G1 X82.603 Y83.915 E576.64732
G1 X82.203 Y84.046 E576.66832
G1 X82.203 Y119.224 E578.42340
G1 X81.803 Y119.224 E578.44336
G1 X81.803 Y84.046 E580.19844
G1 X81.403 Y84.176 E580.21944
G1 X81.403 Y119.224 E581.96796
G1 X81.003 Y119.224 E581.98792
G1 X81.003 Y84.176 E583.73644
G1 X80.603 Y84.176 E583.75640
G1 X80.603 Y119.224 E585.50496
G1 X80.203 Y119.224 E585.52492
G1 X80.203 Y84.307 E587.26692
G1 X79.803 Y84.307 E587.28688
G1 X79.803 Y119.224 E589.02888
G1 X79.403 Y119.224 E589.04884
G1 X79.403 Y84.438 E590.78432
G1 X79.003 Y84.438 E590.80428
G1 X79.003 Y119.224 E592.53972
G1 X78.603 Y119.224 E592.55968
G1 X78.603 Y84.569 E594.28864
G1 X78.203 Y84.569 E594.30860
G1 X78.203 Y119.224 E596.03752
G1 X77.803 Y119.224 E596.05748
G1 X77.803 Y84.699 E597.77992
G1 X77.403 Y84.699 E597.79988
G1 X77.403 Y119.224 E599.52228
G1 X77.003 Y119.224 E599.54224
G1 X77.003 Y84.830 E601.25812
G1 X76.603 Y84.830 E601.27808
G1 X76.603 Y119.224 E602.99396
G1 X76.203 Y119.224 E603.01392
G1 X76.203 Y84.830 E604.72980
G1 X75.803 Y84.961 E604.75080
G1 X75.803 Y119.224 E606.46020
G1 X75.403 Y119.224 E606.48016
G1 X75.403 Y84.961 E608.18956
G1 X75.003 Y85.092 E608.21056
G1 X75.003 Y119.224 E609.91344
G1 X74.603 Y119.224 E609.93340
G1 X74.603 Y85.092 E611.63628
G1 X74.203 Y85.222 E611.65728
G1 X74.203 Y119.224 E613.35364
G1 X73.803 Y119.224 E613.37360
G1 X73.803 Y85.222 E615.06996
G1 X73.403 Y85.353 E615.09096
G1 X73.403 Y119.224 E616.78076
G1 X73.003 Y119.224 E616.80072
G1 X73.003 Y85.353 E618.49052
G1 X72.603 Y85.484 E618.51152
G1 X72.603 Y119.224 E620.19484
G1 X72.203 Y119.224 E620.21480
G1 X72.203 Y85.484 E621.89808
G1 X71.803 Y85.615 E621.91908
G1 X71.803 Y119.224 E623.59584
G1 X71.403 Y119.224 E623.61580
G1 X71.403 Y85.615 E625.29256
G1 X71.003 Y85.615 E625.31248
G1 X71.003 Y119.224 E626.98924
G1 X70.603 Y119.224 E627.00920
G1 X70.603 Y85.746 E628.67944
G1 X70.203 Y85.746 E628.69940
G1 X70.203 Y119.224 E630.36964
G1 X69.803 Y119.224 E630.38960
G1 X69.803 Y85.876 E632.05328
G1 X69.403 Y85.876 E632.07324
G1 X69.403 Y119.224 E633.73692
G1 X69.003 Y119.224 E633.75688
G1 X69.003 Y86.007 E635.41408
G1 X68.603 Y86.007 E635.43404
G1 X68.603 Y119.224 E637.09120
G1 X68.203 Y119.224 E637.11116
G1 X68.203 Y86.138 E638.76176
G1 X67.803 Y86.138 E638.78172
G1 X67.803 Y119.224 E640.43236
G1 X67.403 Y119.224 E640.45232
G1 X67.403 Y86.269 E642.09648
G1 X67.003 Y86.269 E642.11644
G1 X67.003 Y119.224 E643.76064
G1 X66.603 Y119.224 E643.78056
G1 X66.603 Y86.269 E645.42476
G1 X66.203 Y86.399 E645.44572
G1 X66.203 Y119.224 E647.08336
G1 X65.803 Y119.224 E647.10332
G1 X65.803 Y86.399 E648.74096
G1 X65.403 Y86.530 E648.76196
G1 X65.403 Y119.224 E650.39308
G1 X65.003 Y119.224 E650.41304
G1 X65.003 Y86.530 E652.04412
G1 X64.603 Y86.661 E652.06512
G1 X64.603 Y119.224 E653.68968
G1 X64.203 Y119.224 E653.70964
G1 X64.203 Y86.661 E655.33424
G1 X63.803 Y86.792 E655.35524
G1 X63.803 Y119.224 E656.97328
G1 X63.403 Y119.224 E656.99324
G1 X63.403 Y86.792 E658.61128
G1 X63.003 Y86.923 E658.63228
G1 X63.003 Y119.224 E660.24376
G1 X62.603 Y119.224 E660.26372
G1 X62.603 Y86.923 E661.87524
G1 X62.203 Y86.923 E661.89520
G1 X62.203 Y119.224 E663.50672
G1 X61.803 Y119.224 E663.52668
G1 X61.803 Y87.053 E665.13164
G1 X61.403 Y87.053 E665.15160
G1 X61.403 Y119.224 E666.75660
G1 X61.003 Y119.224 E666.77656
G1 X61.003 Y87.184 E668.37500
G1 X60.603 Y87.184 E668.39496
G1 X60.603 Y119.224 E669.99340
G1 X60.203 Y119.224 E670.01336
G1 X60.203 Y87.315 E671.60528
G1 X59.803 Y87.315 E671.62528
G1 X59.803 Y119.224 E673.21720
G1 X59.403 Y119.224 E673.23712
G1 X59.403 Y87.446 E674.82256
G1 X59.003 Y87.446 E674.84256
G1 X59.003 Y119.224 E676.42800
G1 X58.603 Y119.224 E676.44792
G1 X58.603 Y87.576 E678.02688
G1 X58.203 Y87.576 E678.04680
G1 X58.203 Y119.224 E679.62576
G1 X57.803 Y119.224 E679.64568
G1 X57.803 Y87.576 E681.22464
G1 X57.403 Y87.707 E681.24560
G1 X57.403 Y119.224 E682.81800
G1 X57.003 Y119.224 E682.83792
G1 X57.003 Y87.707 E684.41032
G1 X56.603 Y87.838 E684.43136
G1 X56.603 Y119.224 E685.99720
G1 X56.203 Y119.224 E686.01712
G1 X56.203 Y87.838 E687.58304
G1 X55.803 Y87.969 E687.60400
G1 X55.803 Y119.224 E689.16336
G1 X55.403 Y119.224 E689.18328
G1 X55.403 Y87.969 E690.74264
G1 X55.003 Y88.100 E690.76360
G1 X55.003 Y119.224 E692.31640
G1 X54.603 Y119.224 E692.33640
G1 X54.603 Y88.100 E693.88920
G1 X54.203 Y88.230 E693.91016
G1 X54.203 Y119.224 E695.45640
G1 X53.803 Y119.224 E695.47640
G1 X53.803 Y88.230 E697.02264
G1 X53.403 Y88.361 E697.04368
G1 X53.403 Y119.224 E698.58336
G1 X53.003 Y119.224 E698.60336
G1 X53.003 Y88.361 E700.14304
G1 X52.603 Y88.361 E700.16304
G1 X52.603 Y119.224 E701.70272
G1 X52.203 Y119.224 E701.72272
G1 X52.203 Y88.492 E703.25592
G1 X51.803 Y88.492 E703.27584
G1 X51.803 Y119.224 E704.80912
G1 X51.403 Y119.224 E704.82904
G1 X51.403 Y88.623 E706.35568
G1 X51.003 Y88.623 E706.37568
G1 X51.003 Y119.224 E707.90232
G1 X50.603 Y119.224 E707.92232
G1 X50.603 Y88.753 E709.44248
G1 X50.203 Y88.753 E709.46248
G1 X50.203 Y119.224 E710.98264
G1 X49.803 Y119.224 E711.00264
G1 X49.803 Y88.884 E712.51632
G1 X49.403 Y88.884 E712.53624
G1 X49.403 Y119.224 E714.04992
G1 X49.003 Y119.224 E714.06992
G1 X49.003 Y88.884 E715.58352
G1 X48.603 Y89.015 E715.60456
G1 X48.603 Y119.224 E717.11168
G1 X48.203 Y119.224 E717.13168
G1 X48.203 Y89.015 E718.63880
G1 X47.803 Y89.146 E718.65976
G1 X47.803 Y119.224 E720.16040
G1 X47.403 Y119.224 E720.18032
G1 X47.403 Y89.146 E721.68096
G1 X47.003 Y89.276 E721.70200
G1 X47.003 Y119.224 E723.19608
G1 X46.603 Y119.224 E723.21600
G1 X46.603 Y89.276 E724.71008
G1 X46.203 Y89.407 E724.73104
G1 X46.203 Y119.224 E726.21864
G1 X45.803 Y119.224 E726.23856
G1 X45.803 Y89.407 E727.72616
G1 X45.403 Y89.538 E727.74712
G1 X45.403 Y119.224 E729.22816
G1 X45.003 Y119.224 E729.24808
G1 X45.003 Y89.538 E730.72912
G1 X44.603 Y89.669 E730.75016
G1 X44.603 Y119.224 E732.22464
G1 X44.203 Y119.224 E732.24456
G1 X44.203 Y89.669 E733.71904
G1 X43.803 Y89.669 E733.73904
G1 X43.803 Y119.224 E735.21352
G1 X43.403 Y119.224 E735.23344
G1 X43.403 Y89.800 E736.70144
G1 X43.003 Y89.800 E736.72136
G1 X43.003 Y119.224 E738.18936
G1 X42.603 Y119.224 E738.20928
G1 X42.603 Y89.930 E739.67080
G1 X42.203 Y89.930 E739.69072
G1 X42.203 Y119.224 E741.15224
G1 X41.803 Y119.224 E741.17216
G1 X41.803 Y90.061 E742.62712
G1 X41.403 Y90.061 E742.64712
G1 X41.403 Y119.224 E744.10208
G1 X41.003 Y119.224 E744.12200
G1 X41.003 Y90.192 E745.57040
G1 X40.603 Y90.192 E745.59040
G1 X40.603 Y119.224 E747.03880
G1 X40.203 Y119.224 E747.05880
G1 X40.203 Y90.323 E748.50064
G1 X39.803 Y90.323 E748.52064
G1 X39.803 Y119.224 E749.96256
G1 X39.403 Y119.224 E749.98248
G1 X39.403 Y90.453 E751.41784
G1 X39.003 Y90.453 E751.43784
G1 X39.003 Y119.224 E752.87320
G1 X38.603 Y119.224 E752.89312
G1 X38.603 Y90.453 E754.32848
G1 X38.203 Y90.584 E754.34952
G1 X38.203 Y119.224 E755.77832
G1 X37.803 Y119.224 E755.79824
G1 X37.803 Y90.584 E757.22712
G1 X37.403 Y90.715 E757.24808
G1 X37.403 Y119.224 E758.67040
G1 X37.003 Y119.224 E758.69040
G1 X37.003 Y90.715 E760.11264
G1 X36.603 Y90.846 E760.13368
G1 X36.603 Y119.224 E761.54944
G1 X36.203 Y119.224 E761.56936
G1 X36.203 Y90.846 E762.98520
G1 X35.803 Y90.977 E763.00616
G1 X35.803 Y119.224 E764.41544
G1 X35.403 Y119.224 E764.43536
G1 X35.403 Y90.977 E765.84464
G1 X35.003 Y90.977 E765.86456
G1 X35.003 Y119.224 E767.27384
G1 X34.603 Y119.224 E767.29376
G1 X34.603 Y91.107 E768.69648
G1 X34.203 Y91.238 E768.71744
G1 X34.203 Y119.093 E770.10720
G1 X33.803 Y118.962 E770.12816
G1 X33.803 Y91.369 E771.50480
G1 X33.403 Y91.630 E771.52872
G1 X33.403 Y118.701 E772.87920
G1 X33.003 Y118.308 E772.90720
G1 X33.003 Y91.892 E774.22512
G1 X32.603 Y92.284 E774.25304
G1 X32.603 Y117.916 E775.53176
G1 X32.203 Y117.524 E775.55976
G1 X32.203 Y92.677 E776.79936
G1 X31.803 Y93.069 E776.82736
G1 X31.803 Y117.131 E778.02784
G1 X31.403 Y116.739 E778.05576
G1 X31.403 Y93.461 E779.21712
G1 X31.003 Y93.854 E779.24504
G1 X31.003 Y116.347 E780.36728
G1 X30.603 Y115.954 E780.39520
G1 X30.603 Y94.246 E781.47824
G1 X30.203 Y94.769 E781.51112
G1 X30.203 Y115.562 E782.54848
G1 X29.803 Y114.778 E782.59240
G1 X29.803 Y95.423 E783.55800


; ------------------------------------
; Layer #0
; ------------------------------------
G21 ; mm
G90 ; abs
G92 E0 ;reset extr
G0 F600 Z1.950
;segType:HShell
G0 F3000 E-1.00000
G0 X169.329 Y113.159 F5400
G0 F3000 E0.00000
G1 X155.955 Y99.786 E0.94356 F2400
G0 X155.412 Y99.896 F5400
;segType:Perimeter
G1 X154.753 Y99.442 E0.98347 F1440
G1 X154.471 Y99.202 E1.00193
G1 X154.105 Y98.978 E1.02338
G1 X153.707 Y98.813 E1.04485
G1 X153.289 Y98.712 E1.06631
G1 X152.868 Y98.679 E1.08737
G1 X107.132 Y98.679 E3.36913
G1 X106.711 Y98.712 E3.39020
G1 X106.293 Y98.813 E3.41166
G1 X105.895 Y98.978 E3.43313
G1 X105.529 Y99.202 E3.45457
G1 X105.202 Y99.481 E3.47603
G1 X104.923 Y99.808 E3.49749
G1 X104.698 Y100.175 E3.51895
G1 X104.533 Y100.573 E3.54041
G1 X104.433 Y100.991 E3.56187
G1 X104.400 Y101.412 E3.58294
G1 X104.400 Y111.572 E4.08982
G1 X104.370 Y111.946 E4.10853
G1 X104.285 Y112.302 E4.12683
G1 X104.144 Y112.642 E4.14515
G1 X103.952 Y112.954 E4.16346
G1 X103.714 Y113.234 E4.18177
G1 X103.435 Y113.472 E4.20008
G1 X103.122 Y113.664 E4.21839
G1 X102.783 Y113.804 E4.23671
G1 X102.426 Y113.890 E4.25501
G1 X102.052 Y113.919 E4.27372
G1 X37.298 Y113.919 E7.50432
G1 X36.924 Y113.890 E7.52303
G1 X36.567 Y113.804 E7.54133
G1 X36.228 Y113.664 E7.55965
G1 X35.915 Y113.472 E7.57796
G1 X35.636 Y113.234 E7.59627
G1 X35.398 Y112.954 E7.61458
G1 X35.206 Y112.642 E7.63289
G1 X35.066 Y112.302 E7.65120
G1 X34.980 Y111.946 E7.66951
G1 X34.950 Y111.572 E7.68822
G1 X34.950 Y98.495 E8.34064
G1 X34.980 Y98.118 E8.35947
G1 X35.067 Y97.759 E8.37791
G1 X35.209 Y97.418 E8.39634
G1 X35.404 Y97.104 E8.41478
G1 X35.645 Y96.824 E8.43321
G1 X35.927 Y96.586 E8.45165
G1 X36.244 Y96.395 E8.47009
G1 X36.586 Y96.256 E8.48852
G1 X36.953 Y96.171 E8.50729
G1 X104.614 Y86.081 E11.92027
G1 X155.385 Y86.081 E14.45325
G1 X223.048 Y96.172 E17.86628
G1 X223.415 Y96.256 E17.88507
G1 X223.756 Y96.395 E17.90345
G1 X224.073 Y96.586 E17.92189
G1 X224.356 Y96.825 E17.94036
G1 X224.597 Y97.104 E17.95878
G1 X224.791 Y97.419 E17.97721
G1 X224.933 Y97.759 E17.99564
G1 X225.020 Y98.118 E18.01407
G1 X225.050 Y98.495 E18.03289
G1 X225.050 Y111.572 E18.68531
G1 X225.020 Y111.946 E18.70402
G1 X224.934 Y112.302 E18.72233
G1 X224.794 Y112.642 E18.74065
G1 X224.602 Y112.955 E18.75895
G1 X224.364 Y113.234 E18.77726
G1 X224.085 Y113.472 E18.79556
G1 X223.772 Y113.664 E18.81388
G1 X223.433 Y113.804 E18.83221
G1 X223.076 Y113.890 E18.85050
G1 X222.702 Y113.919 E18.86921
G1 X157.948 Y113.919 E22.09981
G1 X157.574 Y113.890 E22.11852
G1 X157.217 Y113.804 E22.13682
G1 X156.878 Y113.664 E22.15514
G1 X156.565 Y113.472 E22.17345
G1 X156.286 Y113.234 E22.19176
G1 X156.048 Y112.955 E22.21007
G1 X155.856 Y112.642 E22.22838
G1 X155.715 Y112.302 E22.24670
G1 X155.630 Y111.946 E22.26500
G1 X155.601 Y111.572 E22.28371
G1 X155.601 Y101.412 E22.79060
G1 X155.567 Y100.991 E22.81166
G1 X155.467 Y100.573 E22.83312
G1 X155.302 Y100.175 E22.85458
G1 X155.077 Y99.809 E22.87604
G1 X154.837 Y99.527 E22.89451
G0 X154.384 Y98.868 F5400
G0 X154.036 Y98.516
;segType:Loop
G1 X153.831 Y98.431 E22.90558 F2400
G1 X153.351 Y98.316 E22.93018
G1 X152.884 Y98.279 E22.95360
G1 X107.117 Y98.279 E25.23692
G1 X106.649 Y98.316 E25.26034
G1 X106.169 Y98.431 E25.28495
G1 X105.713 Y98.620 E25.30956
G1 X105.293 Y98.877 E25.33414
G1 X104.918 Y99.198 E25.35874
G1 X104.598 Y99.573 E25.38334
G1 X104.340 Y99.993 E25.40794
G1 X104.151 Y100.449 E25.43255
G1 X104.036 Y100.928 E25.45714
G1 X104.000 Y101.396 E25.48057
G1 X104.000 Y111.556 E25.98745
G1 X103.974 Y111.883 E26.00380
G1 X103.903 Y112.179 E26.01898
G1 X103.787 Y112.459 E26.03414
G1 X103.628 Y112.719 E26.04931
G1 X103.430 Y112.950 E26.06448
G1 X103.199 Y113.147 E26.07964
G1 X102.940 Y113.306 E26.09482
G1 X102.659 Y113.423 E26.11000
G1 X102.363 Y113.494 E26.12515
G1 X102.036 Y113.519 E26.14151
G1 X37.314 Y113.519 E29.37054
G1 X36.987 Y113.494 E29.38690
G1 X36.691 Y113.423 E29.40206
G1 X36.410 Y113.306 E29.41724
G1 X36.151 Y113.147 E29.43241
G1 X35.920 Y112.950 E29.44757
G1 X35.722 Y112.719 E29.46275
G1 X35.563 Y112.460 E29.47791
G1 X35.447 Y112.179 E29.49308
G1 X35.376 Y111.883 E29.50825
G1 X35.350 Y111.556 E29.52461
G1 X35.350 Y98.510 E30.17546
G1 X35.376 Y98.181 E30.19192
G1 X35.448 Y97.884 E30.20719
G1 X35.566 Y97.601 E30.22246
G1 X35.727 Y97.341 E30.23773
G1 X35.927 Y97.109 E30.25300
G1 X36.161 Y96.912 E30.26828
G1 X36.423 Y96.754 E30.28355
G1 X36.707 Y96.639 E30.29883
G1 X37.027 Y96.565 E30.31524
G1 X104.646 Y86.481 E33.72604
G1 X155.356 Y86.481 E36.25596
G1 X222.970 Y96.564 E39.66654
G1 X223.294 Y96.639 E39.68314
G1 X223.577 Y96.754 E39.69837
G1 X223.839 Y96.912 E39.71366
G1 X224.073 Y97.110 E39.72895
G1 X224.273 Y97.341 E39.74421
G1 X224.434 Y97.602 E39.75948
G1 X224.552 Y97.884 E39.77475
G1 X224.624 Y98.182 E39.79001
G1 X224.650 Y98.511 E39.80648
G1 X224.650 Y111.556 E40.45730
G1 X224.624 Y111.883 E40.47366
G1 X224.553 Y112.178 E40.48884
G1 X224.437 Y112.460 E40.50402
G1 X224.278 Y112.719 E40.51918
G1 X224.080 Y112.950 E40.53435
G1 X223.849 Y113.147 E40.54951
G1 X223.590 Y113.306 E40.56469
G1 X223.308 Y113.423 E40.57988
G1 X223.013 Y113.494 E40.59503
G1 X222.686 Y113.519 E40.61139
G1 X157.964 Y113.519 E43.84042
G1 X157.637 Y113.494 E43.85678
G1 X157.341 Y113.423 E43.87194
G1 X157.060 Y113.306 E43.88712
G1 X156.801 Y113.147 E43.90228
G1 X156.570 Y112.950 E43.91745
G1 X156.372 Y112.719 E43.93262
G1 X156.213 Y112.459 E43.94779
G1 X156.097 Y112.179 E43.96296
G1 X156.026 Y111.883 E43.97813
G1 X156.001 Y111.556 E43.99447
G1 X156.001 Y101.396 E44.50137
G1 X155.964 Y100.928 E44.52479
G1 X155.848 Y100.449 E44.54939
G1 X155.660 Y99.993 E44.57399
G1 X155.402 Y99.573 E44.59859
G1 X155.082 Y99.197 E44.62320
G1 X154.707 Y98.877 E44.64780
G1 X154.287 Y98.620 E44.67238
G1 X154.221 Y98.593 E44.67594
G0 X154.495 Y98.325 F5400
;segType:HShell
G1 X143.011 Y86.841 E45.48619 F2400
G0 X142.445 Y86.841 F5400
G1 X153.612 Y98.008 E46.27409 F2400
G0 X152.962 Y97.924 F5400
G1 X141.879 Y86.841 E47.05607 F2400
G0 X141.313 Y86.841 F5400
G1 X152.392 Y97.919 E47.83771 F2400
G0 X151.826 Y97.919 F5400
G1 X140.748 Y86.841 E48.61934 F2400
G0 X140.182 Y86.841 F5400
G1 X151.260 Y97.919 E49.40097 F2400
G0 X150.695 Y97.919 F5400
G1 X139.616 Y86.841 E50.18260 F2400
G0 X139.051 Y86.841 F5400
G1 X150.129 Y97.919 E50.96423 F2400
G0 X149.563 Y97.919 F5400
G1 X138.485 Y86.841 E51.74586 F2400
G0 X137.919 Y86.841 F5400
G1 X148.998 Y97.919 E52.52750 F2400
G0 X148.432 Y97.919 F5400
G1 X137.354 Y86.841 E53.30913 F2400
G0 X136.788 Y86.841 F5400
G1 X147.866 Y97.919 E54.09076 F2400
G0 X147.301 Y97.919 F5400
G1 X136.222 Y86.841 E54.87239 F2400
G0 X135.657 Y86.841 F5400
G1 X146.735 Y97.919 E55.65402 F2400
G0 X146.169 Y97.919 F5400
G1 X135.091 Y86.841 E56.43565 F2400
G0 X134.525 Y86.841 F5400
G1 X145.603 Y97.919 E57.21728 F2400
G0 X145.038 Y97.919 F5400
G1 X133.960 Y86.841 E57.99892 F2400
G0 X133.394 Y86.841 F5400
G1 X144.472 Y97.919 E58.78055 F2400
G0 X143.906 Y97.919 F5400
G1 X132.828 Y86.841 E59.56218 F2400
G0 X132.263 Y86.841 F5400
G1 X143.341 Y97.919 E60.34381 F2400
G0 X142.775 Y97.919 F5400
G1 X131.697 Y86.841 E61.12544 F2400
G0 X131.131 Y86.841 F5400
G1 X142.209 Y97.919 E61.90707 F2400
G0 X141.644 Y97.919 F5400
G1 X130.565 Y86.841 E62.68870 F2400
G0 X130.000 Y86.841 F5400
G1 X141.078 Y97.919 E63.47034 F2400
G0 X140.512 Y97.919 F5400
G1 X129.434 Y86.841 E64.25197 F2400
G0 X128.868 Y86.841 F5400
G1 X139.947 Y97.919 E65.03360 F2400
G0 X139.381 Y97.919 F5400
G1 X128.303 Y86.841 E65.81523 F2400
G0 X127.737 Y86.841 F5400
G1 X138.815 Y97.919 E66.59687 F2400
G0 X138.250 Y97.919 F5400
G1 X127.171 Y86.841 E67.37850 F2400
G0 X126.606 Y86.841 F5400
G1 X137.684 Y97.919 E68.16013 F2400
G0 X137.118 Y97.919 F5400
G1 X126.040 Y86.841 E68.94176 F2400
G0 X125.474 Y86.841 F5400
G1 X136.553 Y97.919 E69.72339 F2400
G0 X135.987 Y97.919 F5400
G1 X124.909 Y86.841 E70.50502 F2400
G0 X124.343 Y86.841 F5400
G1 X135.421 Y97.919 E71.28665 F2400
G0 X134.855 Y97.919 F5400
G1 X123.777 Y86.841 E72.06829 F2400
G0 X123.212 Y86.841 F5400
G1 X134.290 Y97.919 E72.84992 F2400
G0 X133.724 Y97.919 F5400
G1 X122.646 Y86.841 E73.63155 F2400
G0 X122.080 Y86.841 F5400
G1 X133.158 Y97.919 E74.41318 F2400
G0 X132.593 Y97.919 F5400
G1 X121.514 Y86.841 E75.19481 F2400
G0 X120.949 Y86.841 F5400
G1 X132.027 Y97.919 E75.97644 F2400
G0 X131.461 Y97.919 F5400
G1 X120.383 Y86.841 E76.75807 F2400
G0 X119.817 Y86.841 F5400
G1 X130.896 Y97.919 E77.53971 F2400
G0 X130.330 Y97.919 F5400
G1 X119.252 Y86.841 E78.32134 F2400
G0 X118.686 Y86.841 F5400
G1 X129.764 Y97.919 E79.10297 F2400
G0 X129.199 Y97.919 F5400
G1 X118.120 Y86.841 E79.88460 F2400
G0 X117.555 Y86.841 F5400
G1 X128.633 Y97.919 E80.66623 F2400
G0 X128.067 Y97.919 F5400
G1 X116.989 Y86.841 E81.44786 F2400
G0 X116.423 Y86.841 F5400
G1 X127.502 Y97.919 E82.22949 F2400
G0 X126.936 Y97.919 F5400
G1 X115.858 Y86.841 E83.01113 F2400
G0 X115.292 Y86.841 F5400
G1 X126.370 Y97.919 E83.79276 F2400
G0 X125.804 Y97.919 F5400
G1 X114.726 Y86.841 E84.57439 F2400
G0 X114.161 Y86.841 F5400
G1 X125.239 Y97.919 E85.35602 F2400
G0 X124.673 Y97.919 F5400
G1 X113.595 Y86.841 E86.13765 F2400
G0 X113.029 Y86.841 F5400
G1 X124.107 Y97.919 E86.91928 F2400
G0 X123.542 Y97.919 F5400
G1 X112.463 Y86.841 E87.70091 F2400
G0 X111.898 Y86.841 F5400
G1 X122.976 Y97.919 E88.48254 F2400
G0 X122.410 Y97.919 F5400
G1 X111.332 Y86.841 E89.26418 F2400
G0 X110.766 Y86.841 F5400
G1 X121.845 Y97.919 E90.04581 F2400
G0 X121.279 Y97.919 F5400
G1 X110.201 Y86.841 E90.82744 F2400
G0 X109.635 Y86.841 F5400
G1 X120.713 Y97.919 E91.60907 F2400
G0 X120.148 Y97.919 F5400
G1 X109.069 Y86.841 E92.39070 F2400
G0 X108.504 Y86.841 F5400
G1 X119.582 Y97.919 E93.17233 F2400
G0 X119.016 Y97.919 F5400
G1 X107.938 Y86.841 E93.95396 F2400
G0 X107.372 Y86.841 F5400
G1 X118.451 Y97.919 E94.73560 F2400
G0 X117.885 Y97.919 F5400
G1 X106.807 Y86.841 E95.51723 F2400
G0 X106.241 Y86.841 F5400
G1 X117.319 Y97.919 E96.29886 F2400
G0 X116.753 Y97.919 F5400
G1 X105.675 Y86.841 E97.08049 F2400
G0 X105.110 Y86.841 F5400
G1 X116.188 Y97.919 E97.86212 F2400
G0 X115.622 Y97.919 F5400
G1 X104.561 Y86.858 E98.64257 F2400
G0 X104.068 Y86.931 F5400
G1 X115.056 Y97.919 E99.41784 F2400
G0 X114.491 Y97.919 F5400
G1 X103.576 Y87.005 E100.18793 F2400
G0 X103.084 Y87.078 F5400
G1 X113.925 Y97.919 E100.95284 F2400
G0 X113.359 Y97.919 F5400
G1 X102.591 Y87.151 E101.71256 F2400
G0 X102.099 Y87.225 F5400
G1 X112.794 Y97.919 E102.46711 F2400
G0 X112.228 Y97.919 F5400
G1 X101.607 Y87.298 E103.21648 F2400
G0 X101.115 Y87.372 F5400
G1 X111.662 Y97.919 E103.96068 F2400
G0 X111.097 Y97.919 F5400
G1 X100.622 Y87.445 E104.69969 F2400
G0 X100.130 Y87.518 F5400
G1 X110.531 Y97.919 E105.43353 F2400
G0 X109.965 Y97.919 F5400
G1 X99.638 Y87.592 E106.16218 F2400
G0 X99.146 Y87.665 F5400
G1 X109.400 Y97.919 E106.88565 F2400
G0 X108.834 Y97.919 F5400
G1 X98.653 Y87.739 E107.60394 F2400
G0 X98.161 Y87.812 F5400
G1 X108.268 Y97.919 E108.31705 F2400
G0 X107.702 Y97.919 F5400
G1 X97.669 Y87.885 E109.02499 F2400
G0 X97.176 Y87.959 F5400
G1 X107.137 Y97.919 E109.72774 F2400
G0 X106.610 Y97.958 F5400
G1 X96.684 Y88.032 E110.42804 F2400
G0 X96.192 Y88.106 F5400
G1 X106.151 Y98.065 E111.13072 F2400
G0 X105.740 Y98.219 F5400
G1 X95.700 Y88.179 E111.83910 F2400
G0 X95.207 Y88.253 F5400
G1 X105.366 Y98.411 E112.55582 F2400
G0 X105.023 Y98.634 F5400
G1 X94.715 Y88.326 E113.28312 F2400
G0 X94.223 Y88.399 F5400
G1 X104.718 Y98.895 E114.02362 F2400
G0 X104.450 Y99.192 F5400
G1 X93.731 Y88.473 E114.77991 F2400
G0 X93.238 Y88.546 F5400
G1 X104.209 Y99.517 E115.55398 F2400
G0 X104.000 Y99.873 F5400
G1 X92.746 Y88.620 E116.34799 F2400
G0 X92.254 Y88.693 F5400
G1 X103.834 Y100.273 E117.16505 F2400
G0 X103.716 Y100.721 F5400
G1 X91.761 Y88.766 E118.00850 F2400
G0 X91.269 Y88.840 F5400
G1 X103.652 Y101.223 E118.88218 F2400
G0 X103.640 Y101.776 F5400
G1 X90.777 Y88.913 E119.78971 F2400
G0 X90.285 Y88.987 F5400
G1 X103.640 Y102.342 E120.73197 F2400
G0 X103.640 Y102.907 F5400
G1 X89.792 Y89.060 E121.70897 F2400
G0 X89.300 Y89.133 F5400
G1 X103.640 Y103.473 E122.72070 F2400
G0 X103.640 Y104.039 F5400
G1 X88.808 Y89.207 E123.76716 F2400
G0 X88.316 Y89.280 F5400
G1 X103.640 Y104.604 E124.84835 F2400
G0 X103.640 Y105.170 F5400
G1 X87.823 Y89.354 E125.96427 F2400
G0 X87.331 Y89.427 F5400
G1 X103.640 Y105.736 E127.11493 F2400
G0 X103.640 Y106.301 F5400
G1 X86.839 Y89.501 E128.30032 F2400
G0 X86.346 Y89.574 F5400
G1 X103.640 Y106.867 E129.52045 F2400
G0 X103.640 Y107.433 F5400
G1 X85.854 Y89.647 E130.77530 F2400
G0 X85.362 Y89.721 F5400
G1 X103.640 Y107.998 E132.06488 F2400
G0 X103.640 Y108.564 F5400
G1 X84.870 Y89.794 E133.38921 F2400
G0 X84.377 Y89.868 F5400
G1 X103.640 Y109.130 E134.74826 F2400
G0 X103.640 Y109.695 F5400
G1 X83.885 Y89.941 E136.14204 F2400
G0 X83.393 Y90.014 F5400
G1 X103.640 Y110.261 E137.57056 F2400
G0 X103.640 Y110.827 F5400
G1 X82.901 Y90.088 E139.03381 F2400
G0 X82.408 Y90.161 F5400
G1 X103.640 Y111.393 E140.53180 F2400
G0 X103.596 Y111.915 F5400
G1 X81.916 Y90.235 E142.06143 F2400
G0 X81.424 Y90.308 F5400
G1 X103.444 Y112.329 E143.61511 F2400
G0 X103.207 Y112.657 F5400
G1 X80.931 Y90.381 E145.18677 F2400
G0 X80.439 Y90.455 F5400
G1 X102.895 Y112.911 E146.77116 F2400
G0 X102.507 Y113.089 F5400
G1 X79.947 Y90.528 E148.36292 F2400
G0 X79.455 Y90.602 F5400
G1 X102.012 Y113.159 E149.95445 F2400
G0 X101.446 Y113.159 F5400
G1 X78.962 Y90.675 E151.54082 F2400
G0 X78.470 Y90.749 F5400
G1 X100.881 Y113.159 E153.12199 F2400
G0 X100.315 Y113.159 F5400
G1 X77.978 Y90.822 E154.69800 F2400
G0 X77.486 Y90.895 F5400
G1 X99.749 Y113.159 E156.26883 F2400
G0 X99.184 Y113.159 F5400
G1 X76.993 Y90.969 E157.83447 F2400
G0 X76.501 Y91.042 F5400
G1 X98.618 Y113.159 E159.39494 F2400
G0 X98.052 Y113.159 F5400
G1 X76.009 Y91.116 E160.95023 F2400
G0 X75.516 Y91.189 F5400
G1 X97.486 Y113.159 E162.50034 F2400
G0 X96.921 Y113.159 F5400
G1 X75.024 Y91.262 E164.04526 F2400
G0 X74.532 Y91.336 F5400
G1 X96.355 Y113.159 E165.58501 F2400
G0 X95.789 Y113.159 F5400
G1 X74.040 Y91.409 E167.11957 F2400
G0 X73.547 Y91.483 F5400
G1 X95.224 Y113.159 E168.64896 F2400
G0 X94.658 Y113.159 F5400
G1 X73.055 Y91.556 E170.17316 F2400
G0 X72.563 Y91.629 F5400
G1 X94.092 Y113.159 E171.69218 F2400
G0 X93.527 Y113.159 F5400
G1 X72.071 Y91.703 E173.20604 F2400
G0 X71.578 Y91.776 F5400
G1 X92.961 Y113.159 E174.71470 F2400
G0 X92.395 Y113.159 F5400
G1 X71.086 Y91.850 E176.21820 F2400
G0 X70.594 Y91.923 F5400
G1 X91.830 Y113.159 E177.71650 F2400
G0 X91.264 Y113.159 F5400
G1 X70.101 Y91.997 E179.20964 F2400
G0 X69.609 Y92.070 F5400
G1 X90.698 Y113.159 E180.69758 F2400
G0 X90.133 Y113.159 F5400
G1 X69.117 Y92.143 E182.18036 F2400
G0 X68.625 Y92.217 F5400
G1 X89.567 Y113.159 E183.65794 F2400
G0 X89.001 Y113.159 F5400
G1 X68.132 Y92.290 E185.13036 F2400
G0 X67.640 Y92.364 F5400
G1 X88.436 Y113.159 E186.59758 F2400
G0 X87.870 Y113.159 F5400
G1 X67.148 Y92.437 E188.05964 F2400
G0 X66.656 Y92.510 F5400
G1 X87.304 Y113.159 E189.51650 F2400
G0 X86.738 Y113.159 F5400
G1 X66.163 Y92.584 E190.96818 F2400
G0 X65.671 Y92.657 F5400
G1 X86.173 Y113.159 E192.41470 F2400
G0 X85.607 Y113.159 F5400
G1 X65.179 Y92.731 E193.85604 F2400
G0 X64.686 Y92.804 F5400
G1 X85.041 Y113.159 E195.29220 F2400
G0 X84.476 Y113.159 F5400
G1 X64.194 Y92.877 E196.72316 F2400
G0 X63.702 Y92.951 F5400
G1 X83.910 Y113.159 E198.14896 F2400
G0 X83.344 Y113.159 F5400
G1 X63.210 Y93.024 E199.56956 F2400
G0 X62.717 Y93.098 F5400
G1 X82.779 Y113.159 E200.98500 F2400
G0 X82.213 Y113.159 F5400
G1 X62.225 Y93.171 E202.39524 F2400
G0 X61.733 Y93.245 F5400
G1 X81.647 Y113.159 E203.80032 F2400
G0 X81.082 Y113.159 F5400
G1 X61.241 Y93.318 E205.20022 F2400
G0 X60.748 Y93.391 F5400
G1 X80.516 Y113.159 E206.59494 F2400
G0 X79.950 Y113.159 F5400
G1 X60.256 Y93.465 E207.98448 F2400
G0 X59.764 Y93.538 F5400
G1 X79.385 Y113.159 E209.36884 F2400
G0 X78.819 Y113.159 F5400
G1 X59.271 Y93.612 E210.74802 F2400
G0 X58.779 Y93.685 F5400
G1 X78.253 Y113.159 E212.12200 F2400
G0 X77.687 Y113.159 F5400
G1 X58.287 Y93.758 E213.49082 F2400
G0 X57.795 Y93.832 F5400
G1 X77.122 Y113.159 E214.85446 F2400
G0 X76.556 Y113.159 F5400
G1 X57.302 Y93.905 E216.21292 F2400
G0 X56.810 Y93.979 F5400
G1 X75.990 Y113.159 E217.56620 F2400
G0 X75.425 Y113.159 F5400
G1 X56.318 Y94.052 E218.91430 F2400
G0 X55.825 Y94.125 F5400
G1 X74.859 Y113.159 E220.25722 F2400
G0 X74.293 Y113.159 F5400
G1 X55.333 Y94.199 E221.59496 F2400
G0 X54.841 Y94.272 F5400
G1 X73.728 Y113.159 E222.92752 F2400
G0 X73.162 Y113.159 F5400
G1 X54.349 Y94.346 E224.25490 F2400
G0 X53.856 Y94.419 F5400
G1 X72.596 Y113.159 E225.57710 F2400
G0 X72.031 Y113.159 F5400
G1 X53.364 Y94.493 E226.89412 F2400
G0 X52.872 Y94.566 F5400
G1 X71.465 Y113.159 E228.20596 F2400
G0 X70.899 Y113.159 F5400
G1 X52.380 Y94.639 E229.51262 F2400
G0 X51.887 Y94.713 F5400
G1 X70.334 Y113.159 E230.81410 F2400
G0 X69.768 Y113.159 F5400
G1 X51.395 Y94.786 E232.11042 F2400
G0 X50.903 Y94.860 F5400
G1 X69.202 Y113.159 E233.40154 F2400
G0 X68.637 Y113.159 F5400
G1 X50.410 Y94.933 E234.68748 F2400
G0 X49.918 Y95.006 F5400
G1 X68.071 Y113.159 E235.96824 F2400
G0 X67.505 Y113.159 F5400
G1 X49.426 Y95.080 E237.24384 F2400
G0 X48.934 Y95.153 F5400
G1 X66.939 Y113.159 E238.51424 F2400
G0 X66.374 Y113.159 F5400
G1 X48.441 Y95.227 E239.77946 F2400
G0 X47.949 Y95.300 F5400
G1 X65.808 Y113.159 E241.03950 F2400
G0 X65.242 Y113.159 F5400
G1 X47.457 Y95.373 E242.29438 F2400
G0 X46.965 Y95.447 F5400
G1 X64.677 Y113.159 E243.54406 F2400
G0 X64.111 Y113.159 F5400
G1 X46.472 Y95.520 E244.78856 F2400
G0 X45.980 Y95.594 F5400
G1 X63.545 Y113.159 E246.02790 F2400
G0 X62.980 Y113.159 F5400
G1 X45.488 Y95.667 E247.26204 F2400
G0 X44.995 Y95.741 F5400
G1 X62.414 Y113.159 E248.49102 F2400
G0 X61.848 Y113.159 F5400
G1 X44.503 Y95.814 E249.71480 F2400
G0 X44.011 Y95.887 F5400
G1 X61.283 Y113.159 E250.93342 F2400
G0 X60.717 Y113.159 F5400
G1 X43.519 Y95.961 E252.14684 F2400
G0 X43.026 Y96.034 F5400
G1 X60.151 Y113.159 E253.35508 F2400
G0 X59.586 Y113.159 F5400
G1 X42.534 Y96.108 E254.55816 F2400
G0 X42.042 Y96.181 F5400
G1 X59.020 Y113.159 E255.75604 F2400
G0 X58.454 Y113.159 F5400
